( Made using CamBam - http://www.cambam.co.uk )
( JeffsHive 8/14/2018 9:05:30 PM )
( T6 : 6.0 )
G21 G90 G64 G40
G0 Z3.0
( T6 : 6.0 )
T6 M6
( Pocket1 )
G17
M3 S1000
G0 X101.155 Y311.6436
G0 Z1.0
G1 F300.0 Z-0.4
G1 F800.0 X101.2678 Y311.7256
G1 X101.3951 Y311.7822
G1 X101.5305 Y311.811
G1 X101.6695
G1 X101.8049 Y311.7822
G1 X101.9323 Y311.7255
G1 X102.045 Y311.6436
G1 X102.1372 Y311.5412
G1 X102.207 Y311.4203
G1 X102.25 Y311.288
G1 X102.4 Y309.8609
G1 Y102.8891
G1 X102.25 Y101.462
G1 X102.2071 Y101.33
G1 X102.1374 Y101.2092
G1 X102.0446 Y101.1062
G1 X101.9325 Y101.0247
G1 X101.8051 Y100.968
G1 X101.6692 Y100.9391
G1 X101.5308
G1 X101.3949 Y100.968
G1 X101.2677 Y101.0246
G1 X101.1554 Y101.1062
G1 X101.0624 Y101.2095
G1 X100.9929 Y101.3298
G1 X100.9501 Y101.4617
G1 X100.8 Y102.8893
G1 Y309.8607
G1 X100.9501 Y311.2882
G1 X100.993 Y311.4205
G1 X101.0625 Y311.5409
G1 X101.155 Y311.6436
G1 F300.0 X99.3715 Y313.2496
G1 F800.0 X99.5403 Y313.437
G1 X100.0612 Y313.8155
G1 X100.6493 Y314.0773
G1 X101.2783 Y314.211
G1 X101.9217
G1 X102.5507 Y314.0773
G1 X103.1389 Y313.8154
G1 X103.6597 Y313.437
G1 X104.0896 Y312.9596
G1 X104.4116 Y312.4018
G1 X104.6105 Y311.7897
G1 X104.8 Y309.9867
G1 Y102.7633
G1 X104.6105 Y100.9602
G1 X104.4117 Y100.3484
G1 X104.0898 Y99.7908
G1 X103.6594 Y99.3128
G1 X103.1391 Y98.9348
G1 X102.5509 Y98.6729
G1 X101.9215 Y98.5391
G1 X101.2785
G1 X100.6491 Y98.6729
G1 X100.0611 Y98.9347
G1 X99.5407 Y99.3128
G1 X99.11 Y99.791
G1 X98.7883 Y100.3482
G1 X98.5896 Y100.96
G1 X98.4 Y102.7635
G1 Y309.9865
G1 X98.5896 Y311.7899
G1 X98.7884 Y312.402
G1 X99.1102 Y312.9593
G1 X99.3715 Y313.2496
G1 F300.0 X97.588 Y314.8555
G1 F800.0 X97.9256 Y315.2304
G1 X98.8546 Y315.9053
G1 X99.9035 Y316.3724
G1 X101.026 Y316.611
G1 X102.174
G1 X103.2965 Y316.3724
G1 X104.3455 Y315.9053
G1 X105.2745 Y315.2304
G1 X106.042 Y314.378
G1 X106.6162 Y313.3834
G1 X106.971 Y312.2915
G1 X107.2 Y310.1124
G1 Y102.6376
G1 X106.971 Y100.4584
G1 X106.6163 Y99.3668
G1 X106.0421 Y98.3723
G1 X105.2742 Y97.5194
G1 X104.3457 Y96.8448
G1 X103.2966 Y96.3778
G1 X102.1738 Y96.1391
G1 X101.0262
G1 X99.9034 Y96.3778
G1 X98.8545 Y96.8448
G1 X97.9259 Y97.5194
G1 X97.1577 Y98.3726
G1 X96.5838 Y99.3667
G1 X96.2291 Y100.4583
G1 X96.0 Y102.6378
G1 Y310.1122
G1 X96.2291 Y312.2917
G1 X96.5838 Y313.3835
G1 X97.1578 Y314.3778
G1 X97.588 Y314.8555
G1 F300.0 X95.8045 Y316.4614
G1 F800.0 X96.3109 Y317.0238
G1 X97.648 Y317.9952
G1 X99.1578 Y318.6675
G1 X100.7738 Y319.011
G1 X102.4262
G1 X104.0422 Y318.6675
G1 X105.5521 Y317.9952
G1 X106.8892 Y317.0238
G1 X107.9943 Y315.7964
G1 X108.8208 Y314.3649
G1 X109.3315 Y312.7933
G1 X109.6 Y310.2382
G1 Y102.5118
G1 X109.3315 Y99.9567
G1 X108.8208 Y98.3853
G1 X107.9945 Y96.9539
G1 X106.8889 Y95.726
G1 X105.5522 Y94.7549
G1 X104.0424 Y94.0827
G1 X102.4261 Y93.7391
G1 X100.7739
G1 X99.1576 Y94.0827
G1 X97.6479 Y94.7549
G1 X96.3111 Y95.726
G1 X95.2054 Y96.9541
G1 X94.3792 Y98.3851
G1 X93.8686 Y99.9565
G1 X93.6 Y102.512
G1 Y310.238
G1 X93.8686 Y312.7934
G1 X94.3792 Y314.365
G1 X95.2055 Y315.7962
G1 X95.8045 Y316.4614
G1 F300.0 X94.0209 Y318.0674
G1 F800.0 X94.6961 Y318.8172
G1 X96.4414 Y320.0851
G1 X98.412 Y320.9626
G1 X100.5215 Y321.411
G1 X102.6785
G1 X104.788 Y320.9626
G1 X106.7587 Y320.0851
G1 X108.5039 Y318.8172
G1 X109.9467 Y317.2149
G1 X111.0254 Y315.3464
G1 X111.692 Y313.295
G1 X112.0 Y310.364
G1 Y102.386
G1 X111.692 Y99.4549
G1 X111.0254 Y97.4037
G1 X109.9468 Y95.5355
G1 X108.5037 Y93.9327
G1 X106.7588 Y92.665
G1 X104.7881 Y91.7876
G1 X102.6783 Y91.3391
G1 X100.5217
G1 X98.4119 Y91.7876
G1 X96.4413 Y92.665
G1 X94.6964 Y93.9327
G1 X93.2531 Y95.5357
G1 X92.1746 Y97.4036
G1 X91.5081 Y99.4548
G1 X91.2 Y102.3862
G1 Y310.3638
G1 X91.5081 Y313.2951
G1 X92.1746 Y315.3466
G1 X93.2532 Y317.2147
G1 X94.0209 Y318.0674
G1 F300.0 X92.2374 Y319.6733
G1 F800.0 X93.0814 Y320.6106
G1 X95.2347 Y322.175
G1 X97.6663 Y323.2577
G1 X100.2693 Y323.811
G1 X102.9307
G1 X105.5337 Y323.2577
G1 X107.9653 Y322.175
G1 X110.1187 Y320.6106
G1 X111.8991 Y318.6333
G1 X113.2299 Y316.328
G1 X114.0525 Y313.7968
G1 X114.4 Y310.4897
G1 Y102.2603
G1 X114.0524 Y98.9532
G1 X113.23 Y96.4221
G1 X111.8992 Y94.1171
G1 X110.1185 Y92.1393
G1 X107.9654 Y90.5751
G1 X105.5339 Y89.4925
G1 X102.9306 Y88.9391
G1 X100.2694
G1 X97.6661 Y89.4925
G1 X95.2347 Y90.5751
G1 X93.0816 Y92.1393
G1 X91.3007 Y94.1172
G1 X89.97 Y96.422
G1 X89.1476 Y98.9531
G1 X88.8 Y102.2604
G1 Y310.4896
G1 X89.1476 Y313.7969
G1 X89.97 Y316.3281
G1 X91.3008 Y318.6331
G1 X92.2374 Y319.6733
G1 F300.0 X90.4539 Y321.2793
G1 F800.0 X91.4667 Y322.404
G1 X94.0281 Y324.2649
G1 X96.9205 Y325.5528
G1 X100.017 Y326.211
G1 X103.183
G1 X106.2795 Y325.5528
G1 X109.1719 Y324.2649
G1 X111.7334 Y322.404
G1 X113.8514 Y320.0517
G1 X115.4345 Y317.3095
G1 X116.4129 Y314.2985
G1 X116.8 Y310.6155
G1 Y102.1345
G1 X116.4129 Y98.4514
G1 X115.4346 Y95.4406
G1 X113.8515 Y92.6986
G1 X111.7332 Y90.3459
G1 X109.172 Y88.4852
G1 X106.2796 Y87.1974
G1 X103.1829 Y86.5391
G1 X100.0171
G1 X96.9204 Y87.1974
G1 X94.0281 Y88.4851
G1 X91.4668 Y90.3459
G1 X89.3484 Y92.6987
G1 X87.7654 Y95.4405
G1 X86.7872 Y98.4514
G1 X86.4 Y102.1346
G1 Y310.6154
G1 X86.7872 Y314.2986
G1 X87.7654 Y317.3096
G1 X89.3485 Y320.0516
G1 X90.4539 Y321.2793
G1 F300.0 X88.6704 Y322.8852
G1 F800.0 X89.852 Y324.1974
G1 X92.8215 Y326.3548
G1 X96.1747 Y327.8479
G1 X99.7648 Y328.611
G1 X103.4352
G1 X107.0253 Y327.8479
G1 X110.3785 Y326.3548
G1 X113.3481 Y324.1974
G1 X115.8038 Y321.4701
G1 X117.6391 Y318.291
G1 X118.7734 Y314.8003
G1 X119.2 Y310.7413
G1 Y102.0087
G1 X118.7734 Y97.9497
G1 X117.6391 Y94.459
G1 X115.8039 Y91.2802
G1 X113.348 Y88.5526
G1 X110.3786 Y86.3952
G1 X107.0253 Y84.9023
G1 X103.4351 Y84.1391
G1 X99.7649
G1 X96.1747 Y84.9023
G1 X92.8215 Y86.3952
G1 X89.8521 Y88.5526
G1 X87.3961 Y91.2803
G1 X85.5608 Y94.4589
G1 X84.4267 Y97.9496
G1 X84.0 Y102.0088
G1 Y310.7412
G1 X84.4267 Y314.8004
G1 X85.5608 Y318.2911
G1 X87.3961 Y321.47
G1 X88.6704 Y322.8852
G1 F300.0 X86.8868 Y324.4911
G1 F800.0 X88.2372 Y325.9908
G1 X91.6149 Y328.4447
G1 X95.429 Y330.143
G1 X99.5126 Y331.011
G1 X103.6874
G1 X107.771 Y330.143
G1 X111.5851 Y328.4447
G1 X114.9629 Y325.9908
G1 X117.7562 Y322.8886
G1 X119.8437 Y319.2726
G1 X121.1339 Y315.302
G1 X121.6 Y310.867
G1 Y101.883
G1 X121.1339 Y97.4479
G1 X119.8437 Y93.4774
G1 X117.7562 Y89.8618
G1 X114.9628 Y86.7592
G1 X111.5852 Y84.3053
G1 X107.7711 Y82.6072
G1 X103.6874 Y81.7391
G1 X99.5126
G1 X95.4289 Y82.6072
G1 X91.6149 Y84.3053
G1 X88.2373 Y86.7592
G1 X85.4437 Y89.8618
G1 X83.3562 Y93.4774
G1 X82.0662 Y97.4479
G1 X81.6 Y101.883
G1 Y310.867
G1 X82.0662 Y315.3021
G1 X83.3562 Y319.2726
G1 X85.4438 Y322.8885
G1 X86.8868 Y324.4911
G1 F300.0 X85.1033 Y326.0971
G1 F800.0 X86.6225 Y327.7842
G1 X90.4083 Y330.5346
G1 X94.6832 Y332.4381
G1 X99.2603 Y333.411
G1 X103.9397
G1 X108.5168 Y332.4381
G1 X112.7917 Y330.5346
G1 X116.5776 Y327.7842
G1 X119.7085 Y324.307
G1 X122.0483 Y320.2541
G1 X123.4944 Y315.8038
G1 X124.0 Y310.9928
G1 Y101.7572
G1 X123.4944 Y96.9462
G1 X122.0483 Y92.4959
G1 X119.7086 Y88.4433
G1 X116.5775 Y84.9658
G1 X112.7918 Y82.2154
G1 X108.5168 Y80.3121
G1 X103.9397 Y79.3391
G1 X99.2603
G1 X94.6832 Y80.3121
G1 X90.4083 Y82.2154
G1 X86.6226 Y84.9658
G1 X83.4914 Y88.4434
G1 X81.1516 Y92.4958
G1 X79.7057 Y96.9462
G1 X79.2 Y101.7572
G1 Y310.9928
G1 X79.7057 Y315.8038
G1 X81.1516 Y320.2541
G1 X83.4914 Y324.3069
G1 X85.1033 Y326.0971
G0 Z3.0
G0 X101.155 Y311.6436
G0 Z0.6
G1 F300.0 Z-0.8
G1 F800.0 X101.2678 Y311.7256
G1 X101.3951 Y311.7822
G1 X101.5305 Y311.811
G1 X101.6695
G1 X101.8049 Y311.7822
G1 X101.9323 Y311.7255
G1 X102.045 Y311.6436
G1 X102.1372 Y311.5412
G1 X102.207 Y311.4203
G1 X102.25 Y311.288
G1 X102.4 Y309.8609
G1 Y102.8891
G1 X102.25 Y101.462
G1 X102.2071 Y101.33
G1 X102.1374 Y101.2092
G1 X102.0446 Y101.1062
G1 X101.9325 Y101.0247
G1 X101.8051 Y100.968
G1 X101.6692 Y100.9391
G1 X101.5308
G1 X101.3949 Y100.968
G1 X101.2677 Y101.0246
G1 X101.1554 Y101.1062
G1 X101.0624 Y101.2095
G1 X100.9929 Y101.3298
G1 X100.9501 Y101.4617
G1 X100.8 Y102.8893
G1 Y309.8607
G1 X100.9501 Y311.2882
G1 X100.993 Y311.4205
G1 X101.0625 Y311.5409
G1 X101.155 Y311.6436
G1 F300.0 X99.3715 Y313.2496
G1 F800.0 X99.5403 Y313.437
G1 X100.0612 Y313.8155
G1 X100.6493 Y314.0773
G1 X101.2783 Y314.211
G1 X101.9217
G1 X102.5507 Y314.0773
G1 X103.1389 Y313.8154
G1 X103.6597 Y313.437
G1 X104.0896 Y312.9596
G1 X104.4116 Y312.4018
G1 X104.6105 Y311.7897
G1 X104.8 Y309.9867
G1 Y102.7633
G1 X104.6105 Y100.9602
G1 X104.4117 Y100.3484
G1 X104.0898 Y99.7908
G1 X103.6594 Y99.3128
G1 X103.1391 Y98.9348
G1 X102.5509 Y98.6729
G1 X101.9215 Y98.5391
G1 X101.2785
G1 X100.6491 Y98.6729
G1 X100.0611 Y98.9347
G1 X99.5407 Y99.3128
G1 X99.11 Y99.791
G1 X98.7883 Y100.3482
G1 X98.5896 Y100.96
G1 X98.4 Y102.7635
G1 Y309.9865
G1 X98.5896 Y311.7899
G1 X98.7884 Y312.402
G1 X99.1102 Y312.9593
G1 X99.3715 Y313.2496
G1 F300.0 X97.588 Y314.8555
G1 F800.0 X97.9256 Y315.2304
G1 X98.8546 Y315.9053
G1 X99.9035 Y316.3724
G1 X101.026 Y316.611
G1 X102.174
G1 X103.2965 Y316.3724
G1 X104.3455 Y315.9053
G1 X105.2745 Y315.2304
G1 X106.042 Y314.378
G1 X106.6162 Y313.3834
G1 X106.971 Y312.2915
G1 X107.2 Y310.1124
G1 Y102.6376
G1 X106.971 Y100.4584
G1 X106.6163 Y99.3668
G1 X106.0421 Y98.3723
G1 X105.2742 Y97.5194
G1 X104.3457 Y96.8448
G1 X103.2966 Y96.3778
G1 X102.1738 Y96.1391
G1 X101.0262
G1 X99.9034 Y96.3778
G1 X98.8545 Y96.8448
G1 X97.9259 Y97.5194
G1 X97.1577 Y98.3726
G1 X96.5838 Y99.3667
G1 X96.2291 Y100.4583
G1 X96.0 Y102.6378
G1 Y310.1122
G1 X96.2291 Y312.2917
G1 X96.5838 Y313.3835
G1 X97.1578 Y314.3778
G1 X97.588 Y314.8555
G1 F300.0 X95.8045 Y316.4614
G1 F800.0 X96.3109 Y317.0238
G1 X97.648 Y317.9952
G1 X99.1578 Y318.6675
G1 X100.7738 Y319.011
G1 X102.4262
G1 X104.0422 Y318.6675
G1 X105.5521 Y317.9952
G1 X106.8892 Y317.0238
G1 X107.9943 Y315.7964
G1 X108.8208 Y314.3649
G1 X109.3315 Y312.7933
G1 X109.6 Y310.2382
G1 Y102.5118
G1 X109.3315 Y99.9567
G1 X108.8208 Y98.3853
G1 X107.9945 Y96.9539
G1 X106.8889 Y95.726
G1 X105.5522 Y94.7549
G1 X104.0424 Y94.0827
G1 X102.4261 Y93.7391
G1 X100.7739
G1 X99.1576 Y94.0827
G1 X97.6479 Y94.7549
G1 X96.3111 Y95.726
G1 X95.2054 Y96.9541
G1 X94.3792 Y98.3851
G1 X93.8686 Y99.9565
G1 X93.6 Y102.512
G1 Y310.238
G1 X93.8686 Y312.7934
G1 X94.3792 Y314.365
G1 X95.2055 Y315.7962
G1 X95.8045 Y316.4614
G1 F300.0 X94.0209 Y318.0674
G1 F800.0 X94.6961 Y318.8172
G1 X96.4414 Y320.0851
G1 X98.412 Y320.9626
G1 X100.5215 Y321.411
G1 X102.6785
G1 X104.788 Y320.9626
G1 X106.7587 Y320.0851
G1 X108.5039 Y318.8172
G1 X109.9467 Y317.2149
G1 X111.0254 Y315.3464
G1 X111.692 Y313.295
G1 X112.0 Y310.364
G1 Y102.386
G1 X111.692 Y99.4549
G1 X111.0254 Y97.4037
G1 X109.9468 Y95.5355
G1 X108.5037 Y93.9327
G1 X106.7588 Y92.665
G1 X104.7881 Y91.7876
G1 X102.6783 Y91.3391
G1 X100.5217
G1 X98.4119 Y91.7876
G1 X96.4413 Y92.665
G1 X94.6964 Y93.9327
G1 X93.2531 Y95.5357
G1 X92.1746 Y97.4036
G1 X91.5081 Y99.4548
G1 X91.2 Y102.3862
G1 Y310.3638
G1 X91.5081 Y313.2951
G1 X92.1746 Y315.3466
G1 X93.2532 Y317.2147
G1 X94.0209 Y318.0674
G1 F300.0 X92.2374 Y319.6733
G1 F800.0 X93.0814 Y320.6106
G1 X95.2347 Y322.175
G1 X97.6663 Y323.2577
G1 X100.2693 Y323.811
G1 X102.9307
G1 X105.5337 Y323.2577
G1 X107.9653 Y322.175
G1 X110.1187 Y320.6106
G1 X111.8991 Y318.6333
G1 X113.2299 Y316.328
G1 X114.0525 Y313.7968
G1 X114.4 Y310.4897
G1 Y102.2603
G1 X114.0524 Y98.9532
G1 X113.23 Y96.4221
G1 X111.8992 Y94.1171
G1 X110.1185 Y92.1393
G1 X107.9654 Y90.5751
G1 X105.5339 Y89.4925
G1 X102.9306 Y88.9391
G1 X100.2694
G1 X97.6661 Y89.4925
G1 X95.2347 Y90.5751
G1 X93.0816 Y92.1393
G1 X91.3007 Y94.1172
G1 X89.97 Y96.422
G1 X89.1476 Y98.9531
G1 X88.8 Y102.2604
G1 Y310.4896
G1 X89.1476 Y313.7969
G1 X89.97 Y316.3281
G1 X91.3008 Y318.6331
G1 X92.2374 Y319.6733
G1 F300.0 X90.4539 Y321.2793
G1 F800.0 X91.4667 Y322.404
G1 X94.0281 Y324.2649
G1 X96.9205 Y325.5528
G1 X100.017 Y326.211
G1 X103.183
G1 X106.2795 Y325.5528
G1 X109.1719 Y324.2649
G1 X111.7334 Y322.404
G1 X113.8514 Y320.0517
G1 X115.4345 Y317.3095
G1 X116.4129 Y314.2985
G1 X116.8 Y310.6155
G1 Y102.1345
G1 X116.4129 Y98.4514
G1 X115.4346 Y95.4406
G1 X113.8515 Y92.6986
G1 X111.7332 Y90.3459
G1 X109.172 Y88.4852
G1 X106.2796 Y87.1974
G1 X103.1829 Y86.5391
G1 X100.0171
G1 X96.9204 Y87.1974
G1 X94.0281 Y88.4851
G1 X91.4668 Y90.3459
G1 X89.3484 Y92.6987
G1 X87.7654 Y95.4405
G1 X86.7872 Y98.4514
G1 X86.4 Y102.1346
G1 Y310.6154
G1 X86.7872 Y314.2986
G1 X87.7654 Y317.3096
G1 X89.3485 Y320.0516
G1 X90.4539 Y321.2793
G1 F300.0 X88.6704 Y322.8852
G1 F800.0 X89.852 Y324.1974
G1 X92.8215 Y326.3548
G1 X96.1747 Y327.8479
G1 X99.7648 Y328.611
G1 X103.4352
G1 X107.0253 Y327.8479
G1 X110.3785 Y326.3548
G1 X113.3481 Y324.1974
G1 X115.8038 Y321.4701
G1 X117.6391 Y318.291
G1 X118.7734 Y314.8003
G1 X119.2 Y310.7413
G1 Y102.0087
G1 X118.7734 Y97.9497
G1 X117.6391 Y94.459
G1 X115.8039 Y91.2802
G1 X113.348 Y88.5526
G1 X110.3786 Y86.3952
G1 X107.0253 Y84.9023
G1 X103.4351 Y84.1391
G1 X99.7649
G1 X96.1747 Y84.9023
G1 X92.8215 Y86.3952
G1 X89.8521 Y88.5526
G1 X87.3961 Y91.2803
G1 X85.5608 Y94.4589
G1 X84.4267 Y97.9496
G1 X84.0 Y102.0088
G1 Y310.7412
G1 X84.4267 Y314.8004
G1 X85.5608 Y318.2911
G1 X87.3961 Y321.47
G1 X88.6704 Y322.8852
G1 F300.0 X86.8868 Y324.4911
G1 F800.0 X88.2372 Y325.9908
G1 X91.6149 Y328.4447
G1 X95.429 Y330.143
G1 X99.5126 Y331.011
G1 X103.6874
G1 X107.771 Y330.143
G1 X111.5851 Y328.4447
G1 X114.9629 Y325.9908
G1 X117.7562 Y322.8886
G1 X119.8437 Y319.2726
G1 X121.1339 Y315.302
G1 X121.6 Y310.867
G1 Y101.883
G1 X121.1339 Y97.4479
G1 X119.8437 Y93.4774
G1 X117.7562 Y89.8618
G1 X114.9628 Y86.7592
G1 X111.5852 Y84.3053
G1 X107.7711 Y82.6072
G1 X103.6874 Y81.7391
G1 X99.5126
G1 X95.4289 Y82.6072
G1 X91.6149 Y84.3053
G1 X88.2373 Y86.7592
G1 X85.4437 Y89.8618
G1 X83.3562 Y93.4774
G1 X82.0662 Y97.4479
G1 X81.6 Y101.883
G1 Y310.867
G1 X82.0662 Y315.3021
G1 X83.3562 Y319.2726
G1 X85.4438 Y322.8885
G1 X86.8868 Y324.4911
G1 F300.0 X85.1033 Y326.0971
G1 F800.0 X86.6225 Y327.7842
G1 X90.4083 Y330.5346
G1 X94.6832 Y332.4381
G1 X99.2603 Y333.411
G1 X103.9397
G1 X108.5168 Y332.4381
G1 X112.7917 Y330.5346
G1 X116.5776 Y327.7842
G1 X119.7085 Y324.307
G1 X122.0483 Y320.2541
G1 X123.4944 Y315.8038
G1 X124.0 Y310.9928
G1 Y101.7572
G1 X123.4944 Y96.9462
G1 X122.0483 Y92.4959
G1 X119.7086 Y88.4433
G1 X116.5775 Y84.9658
G1 X112.7918 Y82.2154
G1 X108.5168 Y80.3121
G1 X103.9397 Y79.3391
G1 X99.2603
G1 X94.6832 Y80.3121
G1 X90.4083 Y82.2154
G1 X86.6226 Y84.9658
G1 X83.4914 Y88.4434
G1 X81.1516 Y92.4958
G1 X79.7057 Y96.9462
G1 X79.2 Y101.7572
G1 Y310.9928
G1 X79.7057 Y315.8038
G1 X81.1516 Y320.2541
G1 X83.4914 Y324.3069
G1 X85.1033 Y326.0971
G0 Z3.0
G0 X101.155 Y311.6436
G0 Z0.2
G1 F300.0 Z-1.2
G1 F800.0 X101.2678 Y311.7256
G1 X101.3951 Y311.7822
G1 X101.5305 Y311.811
G1 X101.6695
G1 X101.8049 Y311.7822
G1 X101.9323 Y311.7255
G1 X102.045 Y311.6436
G1 X102.1372 Y311.5412
G1 X102.207 Y311.4203
G1 X102.25 Y311.288
G1 X102.4 Y309.8609
G1 Y102.8891
G1 X102.25 Y101.462
G1 X102.2071 Y101.33
G1 X102.1374 Y101.2092
G1 X102.0446 Y101.1062
G1 X101.9325 Y101.0247
G1 X101.8051 Y100.968
G1 X101.6692 Y100.9391
G1 X101.5308
G1 X101.3949 Y100.968
G1 X101.2677 Y101.0246
G1 X101.1554 Y101.1062
G1 X101.0624 Y101.2095
G1 X100.9929 Y101.3298
G1 X100.9501 Y101.4617
G1 X100.8 Y102.8893
G1 Y309.8607
G1 X100.9501 Y311.2882
G1 X100.993 Y311.4205
G1 X101.0625 Y311.5409
G1 X101.155 Y311.6436
G1 F300.0 X99.3715 Y313.2496
G1 F800.0 X99.5403 Y313.437
G1 X100.0612 Y313.8155
G1 X100.6493 Y314.0773
G1 X101.2783 Y314.211
G1 X101.9217
G1 X102.5507 Y314.0773
G1 X103.1389 Y313.8154
G1 X103.6597 Y313.437
G1 X104.0896 Y312.9596
G1 X104.4116 Y312.4018
G1 X104.6105 Y311.7897
G1 X104.8 Y309.9867
G1 Y102.7633
G1 X104.6105 Y100.9602
G1 X104.4117 Y100.3484
G1 X104.0898 Y99.7908
G1 X103.6594 Y99.3128
G1 X103.1391 Y98.9348
G1 X102.5509 Y98.6729
G1 X101.9215 Y98.5391
G1 X101.2785
G1 X100.6491 Y98.6729
G1 X100.0611 Y98.9347
G1 X99.5407 Y99.3128
G1 X99.11 Y99.791
G1 X98.7883 Y100.3482
G1 X98.5896 Y100.96
G1 X98.4 Y102.7635
G1 Y309.9865
G1 X98.5896 Y311.7899
G1 X98.7884 Y312.402
G1 X99.1102 Y312.9593
G1 X99.3715 Y313.2496
G1 F300.0 X97.588 Y314.8555
G1 F800.0 X97.9256 Y315.2304
G1 X98.8546 Y315.9053
G1 X99.9035 Y316.3724
G1 X101.026 Y316.611
G1 X102.174
G1 X103.2965 Y316.3724
G1 X104.3455 Y315.9053
G1 X105.2745 Y315.2304
G1 X106.042 Y314.378
G1 X106.6162 Y313.3834
G1 X106.971 Y312.2915
G1 X107.2 Y310.1124
G1 Y102.6376
G1 X106.971 Y100.4584
G1 X106.6163 Y99.3668
G1 X106.0421 Y98.3723
G1 X105.2742 Y97.5194
G1 X104.3457 Y96.8448
G1 X103.2966 Y96.3778
G1 X102.1738 Y96.1391
G1 X101.0262
G1 X99.9034 Y96.3778
G1 X98.8545 Y96.8448
G1 X97.9259 Y97.5194
G1 X97.1577 Y98.3726
G1 X96.5838 Y99.3667
G1 X96.2291 Y100.4583
G1 X96.0 Y102.6378
G1 Y310.1122
G1 X96.2291 Y312.2917
G1 X96.5838 Y313.3835
G1 X97.1578 Y314.3778
G1 X97.588 Y314.8555
G1 F300.0 X95.8045 Y316.4614
G1 F800.0 X96.3109 Y317.0238
G1 X97.648 Y317.9952
G1 X99.1578 Y318.6675
G1 X100.7738 Y319.011
G1 X102.4262
G1 X104.0422 Y318.6675
G1 X105.5521 Y317.9952
G1 X106.8892 Y317.0238
G1 X107.9943 Y315.7964
G1 X108.8208 Y314.3649
G1 X109.3315 Y312.7933
G1 X109.6 Y310.2382
G1 Y102.5118
G1 X109.3315 Y99.9567
G1 X108.8208 Y98.3853
G1 X107.9945 Y96.9539
G1 X106.8889 Y95.726
G1 X105.5522 Y94.7549
G1 X104.0424 Y94.0827
G1 X102.4261 Y93.7391
G1 X100.7739
G1 X99.1576 Y94.0827
G1 X97.6479 Y94.7549
G1 X96.3111 Y95.726
G1 X95.2054 Y96.9541
G1 X94.3792 Y98.3851
G1 X93.8686 Y99.9565
G1 X93.6 Y102.512
G1 Y310.238
G1 X93.8686 Y312.7934
G1 X94.3792 Y314.365
G1 X95.2055 Y315.7962
G1 X95.8045 Y316.4614
G1 F300.0 X94.0209 Y318.0674
G1 F800.0 X94.6961 Y318.8172
G1 X96.4414 Y320.0851
G1 X98.412 Y320.9626
G1 X100.5215 Y321.411
G1 X102.6785
G1 X104.788 Y320.9626
G1 X106.7587 Y320.0851
G1 X108.5039 Y318.8172
G1 X109.9467 Y317.2149
G1 X111.0254 Y315.3464
G1 X111.692 Y313.295
G1 X112.0 Y310.364
G1 Y102.386
G1 X111.692 Y99.4549
G1 X111.0254 Y97.4037
G1 X109.9468 Y95.5355
G1 X108.5037 Y93.9327
G1 X106.7588 Y92.665
G1 X104.7881 Y91.7876
G1 X102.6783 Y91.3391
G1 X100.5217
G1 X98.4119 Y91.7876
G1 X96.4413 Y92.665
G1 X94.6964 Y93.9327
G1 X93.2531 Y95.5357
G1 X92.1746 Y97.4036
G1 X91.5081 Y99.4548
G1 X91.2 Y102.3862
G1 Y310.3638
G1 X91.5081 Y313.2951
G1 X92.1746 Y315.3466
G1 X93.2532 Y317.2147
G1 X94.0209 Y318.0674
G1 F300.0 X92.2374 Y319.6733
G1 F800.0 X93.0814 Y320.6106
G1 X95.2347 Y322.175
G1 X97.6663 Y323.2577
G1 X100.2693 Y323.811
G1 X102.9307
G1 X105.5337 Y323.2577
G1 X107.9653 Y322.175
G1 X110.1187 Y320.6106
G1 X111.8991 Y318.6333
G1 X113.2299 Y316.328
G1 X114.0525 Y313.7968
G1 X114.4 Y310.4897
G1 Y102.2603
G1 X114.0524 Y98.9532
G1 X113.23 Y96.4221
G1 X111.8992 Y94.1171
G1 X110.1185 Y92.1393
G1 X107.9654 Y90.5751
G1 X105.5339 Y89.4925
G1 X102.9306 Y88.9391
G1 X100.2694
G1 X97.6661 Y89.4925
G1 X95.2347 Y90.5751
G1 X93.0816 Y92.1393
G1 X91.3007 Y94.1172
G1 X89.97 Y96.422
G1 X89.1476 Y98.9531
G1 X88.8 Y102.2604
G1 Y310.4896
G1 X89.1476 Y313.7969
G1 X89.97 Y316.3281
G1 X91.3008 Y318.6331
G1 X92.2374 Y319.6733
G1 F300.0 X90.4539 Y321.2793
G1 F800.0 X91.4667 Y322.404
G1 X94.0281 Y324.2649
G1 X96.9205 Y325.5528
G1 X100.017 Y326.211
G1 X103.183
G1 X106.2795 Y325.5528
G1 X109.1719 Y324.2649
G1 X111.7334 Y322.404
G1 X113.8514 Y320.0517
G1 X115.4345 Y317.3095
G1 X116.4129 Y314.2985
G1 X116.8 Y310.6155
G1 Y102.1345
G1 X116.4129 Y98.4514
G1 X115.4346 Y95.4406
G1 X113.8515 Y92.6986
G1 X111.7332 Y90.3459
G1 X109.172 Y88.4852
G1 X106.2796 Y87.1974
G1 X103.1829 Y86.5391
G1 X100.0171
G1 X96.9204 Y87.1974
G1 X94.0281 Y88.4851
G1 X91.4668 Y90.3459
G1 X89.3484 Y92.6987
G1 X87.7654 Y95.4405
G1 X86.7872 Y98.4514
G1 X86.4 Y102.1346
G1 Y310.6154
G1 X86.7872 Y314.2986
G1 X87.7654 Y317.3096
G1 X89.3485 Y320.0516
G1 X90.4539 Y321.2793
G1 F300.0 X88.6704 Y322.8852
G1 F800.0 X89.852 Y324.1974
G1 X92.8215 Y326.3548
G1 X96.1747 Y327.8479
G1 X99.7648 Y328.611
G1 X103.4352
G1 X107.0253 Y327.8479
G1 X110.3785 Y326.3548
G1 X113.3481 Y324.1974
G1 X115.8038 Y321.4701
G1 X117.6391 Y318.291
G1 X118.7734 Y314.8003
G1 X119.2 Y310.7413
G1 Y102.0087
G1 X118.7734 Y97.9497
G1 X117.6391 Y94.459
G1 X115.8039 Y91.2802
G1 X113.348 Y88.5526
G1 X110.3786 Y86.3952
G1 X107.0253 Y84.9023
G1 X103.4351 Y84.1391
G1 X99.7649
G1 X96.1747 Y84.9023
G1 X92.8215 Y86.3952
G1 X89.8521 Y88.5526
G1 X87.3961 Y91.2803
G1 X85.5608 Y94.4589
G1 X84.4267 Y97.9496
G1 X84.0 Y102.0088
G1 Y310.7412
G1 X84.4267 Y314.8004
G1 X85.5608 Y318.2911
G1 X87.3961 Y321.47
G1 X88.6704 Y322.8852
G1 F300.0 X86.8868 Y324.4911
G1 F800.0 X88.2372 Y325.9908
G1 X91.6149 Y328.4447
G1 X95.429 Y330.143
G1 X99.5126 Y331.011
G1 X103.6874
G1 X107.771 Y330.143
G1 X111.5851 Y328.4447
G1 X114.9629 Y325.9908
G1 X117.7562 Y322.8886
G1 X119.8437 Y319.2726
G1 X121.1339 Y315.302
G1 X121.6 Y310.867
G1 Y101.883
G1 X121.1339 Y97.4479
G1 X119.8437 Y93.4774
G1 X117.7562 Y89.8618
G1 X114.9628 Y86.7592
G1 X111.5852 Y84.3053
G1 X107.7711 Y82.6072
G1 X103.6874 Y81.7391
G1 X99.5126
G1 X95.4289 Y82.6072
G1 X91.6149 Y84.3053
G1 X88.2373 Y86.7592
G1 X85.4437 Y89.8618
G1 X83.3562 Y93.4774
G1 X82.0662 Y97.4479
G1 X81.6 Y101.883
G1 Y310.867
G1 X82.0662 Y315.3021
G1 X83.3562 Y319.2726
G1 X85.4438 Y322.8885
G1 X86.8868 Y324.4911
G1 F300.0 X85.1033 Y326.0971
G1 F800.0 X86.6225 Y327.7842
G1 X90.4083 Y330.5346
G1 X94.6832 Y332.4381
G1 X99.2603 Y333.411
G1 X103.9397
G1 X108.5168 Y332.4381
G1 X112.7917 Y330.5346
G1 X116.5776 Y327.7842
G1 X119.7085 Y324.307
G1 X122.0483 Y320.2541
G1 X123.4944 Y315.8038
G1 X124.0 Y310.9928
G1 Y101.7572
G1 X123.4944 Y96.9462
G1 X122.0483 Y92.4959
G1 X119.7086 Y88.4433
G1 X116.5775 Y84.9658
G1 X112.7918 Y82.2154
G1 X108.5168 Y80.3121
G1 X103.9397 Y79.3391
G1 X99.2603
G1 X94.6832 Y80.3121
G1 X90.4083 Y82.2154
G1 X86.6226 Y84.9658
G1 X83.4914 Y88.4434
G1 X81.1516 Y92.4958
G1 X79.7057 Y96.9462
G1 X79.2 Y101.7572
G1 Y310.9928
G1 X79.7057 Y315.8038
G1 X81.1516 Y320.2541
G1 X83.4914 Y324.3069
G1 X85.1033 Y326.0971
G0 Z3.0
G0 X101.155 Y311.6436
G0 Z-0.2
G1 F300.0 Z-1.6
G1 F800.0 X101.2678 Y311.7256
G1 X101.3951 Y311.7822
G1 X101.5305 Y311.811
G1 X101.6695
G1 X101.8049 Y311.7822
G1 X101.9323 Y311.7255
G1 X102.045 Y311.6436
G1 X102.1372 Y311.5412
G1 X102.207 Y311.4203
G1 X102.25 Y311.288
G1 X102.4 Y309.8609
G1 Y102.8891
G1 X102.25 Y101.462
G1 X102.2071 Y101.33
G1 X102.1374 Y101.2092
G1 X102.0446 Y101.1062
G1 X101.9325 Y101.0247
G1 X101.8051 Y100.968
G1 X101.6692 Y100.9391
G1 X101.5308
G1 X101.3949 Y100.968
G1 X101.2677 Y101.0246
G1 X101.1554 Y101.1062
G1 X101.0624 Y101.2095
G1 X100.9929 Y101.3298
G1 X100.9501 Y101.4617
G1 X100.8 Y102.8893
G1 Y309.8607
G1 X100.9501 Y311.2882
G1 X100.993 Y311.4205
G1 X101.0625 Y311.5409
G1 X101.155 Y311.6436
G1 F300.0 X99.3715 Y313.2496
G1 F800.0 X99.5403 Y313.437
G1 X100.0612 Y313.8155
G1 X100.6493 Y314.0773
G1 X101.2783 Y314.211
G1 X101.9217
G1 X102.5507 Y314.0773
G1 X103.1389 Y313.8154
G1 X103.6597 Y313.437
G1 X104.0896 Y312.9596
G1 X104.4116 Y312.4018
G1 X104.6105 Y311.7897
G1 X104.8 Y309.9867
G1 Y102.7633
G1 X104.6105 Y100.9602
G1 X104.4117 Y100.3484
G1 X104.0898 Y99.7908
G1 X103.6594 Y99.3128
G1 X103.1391 Y98.9348
G1 X102.5509 Y98.6729
G1 X101.9215 Y98.5391
G1 X101.2785
G1 X100.6491 Y98.6729
G1 X100.0611 Y98.9347
G1 X99.5407 Y99.3128
G1 X99.11 Y99.791
G1 X98.7883 Y100.3482
G1 X98.5896 Y100.96
G1 X98.4 Y102.7635
G1 Y309.9865
G1 X98.5896 Y311.7899
G1 X98.7884 Y312.402
G1 X99.1102 Y312.9593
G1 X99.3715 Y313.2496
G1 F300.0 X97.588 Y314.8555
G1 F800.0 X97.9256 Y315.2304
G1 X98.8546 Y315.9053
G1 X99.9035 Y316.3724
G1 X101.026 Y316.611
G1 X102.174
G1 X103.2965 Y316.3724
G1 X104.3455 Y315.9053
G1 X105.2745 Y315.2304
G1 X106.042 Y314.378
G1 X106.6162 Y313.3834
G1 X106.971 Y312.2915
G1 X107.2 Y310.1124
G1 Y102.6376
G1 X106.971 Y100.4584
G1 X106.6163 Y99.3668
G1 X106.0421 Y98.3723
G1 X105.2742 Y97.5194
G1 X104.3457 Y96.8448
G1 X103.2966 Y96.3778
G1 X102.1738 Y96.1391
G1 X101.0262
G1 X99.9034 Y96.3778
G1 X98.8545 Y96.8448
G1 X97.9259 Y97.5194
G1 X97.1577 Y98.3726
G1 X96.5838 Y99.3667
G1 X96.2291 Y100.4583
G1 X96.0 Y102.6378
G1 Y310.1122
G1 X96.2291 Y312.2917
G1 X96.5838 Y313.3835
G1 X97.1578 Y314.3778
G1 X97.588 Y314.8555
G1 F300.0 X95.8045 Y316.4614
G1 F800.0 X96.3109 Y317.0238
G1 X97.648 Y317.9952
G1 X99.1578 Y318.6675
G1 X100.7738 Y319.011
G1 X102.4262
G1 X104.0422 Y318.6675
G1 X105.5521 Y317.9952
G1 X106.8892 Y317.0238
G1 X107.9943 Y315.7964
G1 X108.8208 Y314.3649
G1 X109.3315 Y312.7933
G1 X109.6 Y310.2382
G1 Y102.5118
G1 X109.3315 Y99.9567
G1 X108.8208 Y98.3853
G1 X107.9945 Y96.9539
G1 X106.8889 Y95.726
G1 X105.5522 Y94.7549
G1 X104.0424 Y94.0827
G1 X102.4261 Y93.7391
G1 X100.7739
G1 X99.1576 Y94.0827
G1 X97.6479 Y94.7549
G1 X96.3111 Y95.726
G1 X95.2054 Y96.9541
G1 X94.3792 Y98.3851
G1 X93.8686 Y99.9565
G1 X93.6 Y102.512
G1 Y310.238
G1 X93.8686 Y312.7934
G1 X94.3792 Y314.365
G1 X95.2055 Y315.7962
G1 X95.8045 Y316.4614
G1 F300.0 X94.0209 Y318.0674
G1 F800.0 X94.6961 Y318.8172
G1 X96.4414 Y320.0851
G1 X98.412 Y320.9626
G1 X100.5215 Y321.411
G1 X102.6785
G1 X104.788 Y320.9626
G1 X106.7587 Y320.0851
G1 X108.5039 Y318.8172
G1 X109.9467 Y317.2149
G1 X111.0254 Y315.3464
G1 X111.692 Y313.295
G1 X112.0 Y310.364
G1 Y102.386
G1 X111.692 Y99.4549
G1 X111.0254 Y97.4037
G1 X109.9468 Y95.5355
G1 X108.5037 Y93.9327
G1 X106.7588 Y92.665
G1 X104.7881 Y91.7876
G1 X102.6783 Y91.3391
G1 X100.5217
G1 X98.4119 Y91.7876
G1 X96.4413 Y92.665
G1 X94.6964 Y93.9327
G1 X93.2531 Y95.5357
G1 X92.1746 Y97.4036
G1 X91.5081 Y99.4548
G1 X91.2 Y102.3862
G1 Y310.3638
G1 X91.5081 Y313.2951
G1 X92.1746 Y315.3466
G1 X93.2532 Y317.2147
G1 X94.0209 Y318.0674
G1 F300.0 X92.2374 Y319.6733
G1 F800.0 X93.0814 Y320.6106
G1 X95.2347 Y322.175
G1 X97.6663 Y323.2577
G1 X100.2693 Y323.811
G1 X102.9307
G1 X105.5337 Y323.2577
G1 X107.9653 Y322.175
G1 X110.1187 Y320.6106
G1 X111.8991 Y318.6333
G1 X113.2299 Y316.328
G1 X114.0525 Y313.7968
G1 X114.4 Y310.4897
G1 Y102.2603
G1 X114.0524 Y98.9532
G1 X113.23 Y96.4221
G1 X111.8992 Y94.1171
G1 X110.1185 Y92.1393
G1 X107.9654 Y90.5751
G1 X105.5339 Y89.4925
G1 X102.9306 Y88.9391
G1 X100.2694
G1 X97.6661 Y89.4925
G1 X95.2347 Y90.5751
G1 X93.0816 Y92.1393
G1 X91.3007 Y94.1172
G1 X89.97 Y96.422
G1 X89.1476 Y98.9531
G1 X88.8 Y102.2604
G1 Y310.4896
G1 X89.1476 Y313.7969
G1 X89.97 Y316.3281
G1 X91.3008 Y318.6331
G1 X92.2374 Y319.6733
G1 F300.0 X90.4539 Y321.2793
G1 F800.0 X91.4667 Y322.404
G1 X94.0281 Y324.2649
G1 X96.9205 Y325.5528
G1 X100.017 Y326.211
G1 X103.183
G1 X106.2795 Y325.5528
G1 X109.1719 Y324.2649
G1 X111.7334 Y322.404
G1 X113.8514 Y320.0517
G1 X115.4345 Y317.3095
G1 X116.4129 Y314.2985
G1 X116.8 Y310.6155
G1 Y102.1345
G1 X116.4129 Y98.4514
G1 X115.4346 Y95.4406
G1 X113.8515 Y92.6986
G1 X111.7332 Y90.3459
G1 X109.172 Y88.4852
G1 X106.2796 Y87.1974
G1 X103.1829 Y86.5391
G1 X100.0171
G1 X96.9204 Y87.1974
G1 X94.0281 Y88.4851
G1 X91.4668 Y90.3459
G1 X89.3484 Y92.6987
G1 X87.7654 Y95.4405
G1 X86.7872 Y98.4514
G1 X86.4 Y102.1346
G1 Y310.6154
G1 X86.7872 Y314.2986
G1 X87.7654 Y317.3096
G1 X89.3485 Y320.0516
G1 X90.4539 Y321.2793
G1 F300.0 X88.6704 Y322.8852
G1 F800.0 X89.852 Y324.1974
G1 X92.8215 Y326.3548
G1 X96.1747 Y327.8479
G1 X99.7648 Y328.611
G1 X103.4352
G1 X107.0253 Y327.8479
G1 X110.3785 Y326.3548
G1 X113.3481 Y324.1974
G1 X115.8038 Y321.4701
G1 X117.6391 Y318.291
G1 X118.7734 Y314.8003
G1 X119.2 Y310.7413
G1 Y102.0087
G1 X118.7734 Y97.9497
G1 X117.6391 Y94.459
G1 X115.8039 Y91.2802
G1 X113.348 Y88.5526
G1 X110.3786 Y86.3952
G1 X107.0253 Y84.9023
G1 X103.4351 Y84.1391
G1 X99.7649
G1 X96.1747 Y84.9023
G1 X92.8215 Y86.3952
G1 X89.8521 Y88.5526
G1 X87.3961 Y91.2803
G1 X85.5608 Y94.4589
G1 X84.4267 Y97.9496
G1 X84.0 Y102.0088
G1 Y310.7412
G1 X84.4267 Y314.8004
G1 X85.5608 Y318.2911
G1 X87.3961 Y321.47
G1 X88.6704 Y322.8852
G1 F300.0 X86.8868 Y324.4911
G1 F800.0 X88.2372 Y325.9908
G1 X91.6149 Y328.4447
G1 X95.429 Y330.143
G1 X99.5126 Y331.011
G1 X103.6874
G1 X107.771 Y330.143
G1 X111.5851 Y328.4447
G1 X114.9629 Y325.9908
G1 X117.7562 Y322.8886
G1 X119.8437 Y319.2726
G1 X121.1339 Y315.302
G1 X121.6 Y310.867
G1 Y101.883
G1 X121.1339 Y97.4479
G1 X119.8437 Y93.4774
G1 X117.7562 Y89.8618
G1 X114.9628 Y86.7592
G1 X111.5852 Y84.3053
G1 X107.7711 Y82.6072
G1 X103.6874 Y81.7391
G1 X99.5126
G1 X95.4289 Y82.6072
G1 X91.6149 Y84.3053
G1 X88.2373 Y86.7592
G1 X85.4437 Y89.8618
G1 X83.3562 Y93.4774
G1 X82.0662 Y97.4479
G1 X81.6 Y101.883
G1 Y310.867
G1 X82.0662 Y315.3021
G1 X83.3562 Y319.2726
G1 X85.4438 Y322.8885
G1 X86.8868 Y324.4911
G1 F300.0 X85.1033 Y326.0971
G1 F800.0 X86.6225 Y327.7842
G1 X90.4083 Y330.5346
G1 X94.6832 Y332.4381
G1 X99.2603 Y333.411
G1 X103.9397
G1 X108.5168 Y332.4381
G1 X112.7917 Y330.5346
G1 X116.5776 Y327.7842
G1 X119.7085 Y324.307
G1 X122.0483 Y320.2541
G1 X123.4944 Y315.8038
G1 X124.0 Y310.9928
G1 Y101.7572
G1 X123.4944 Y96.9462
G1 X122.0483 Y92.4959
G1 X119.7086 Y88.4433
G1 X116.5775 Y84.9658
G1 X112.7918 Y82.2154
G1 X108.5168 Y80.3121
G1 X103.9397 Y79.3391
G1 X99.2603
G1 X94.6832 Y80.3121
G1 X90.4083 Y82.2154
G1 X86.6226 Y84.9658
G1 X83.4914 Y88.4434
G1 X81.1516 Y92.4958
G1 X79.7057 Y96.9462
G1 X79.2 Y101.7572
G1 Y310.9928
G1 X79.7057 Y315.8038
G1 X81.1516 Y320.2541
G1 X83.4914 Y324.3069
G1 X85.1033 Y326.0971
G0 Z3.0
G0 X101.155 Y311.6436
G0 Z-0.6
G1 F300.0 Z-2.0
G1 F800.0 X101.2678 Y311.7256
G1 X101.3951 Y311.7822
G1 X101.5305 Y311.811
G1 X101.6695
G1 X101.8049 Y311.7822
G1 X101.9323 Y311.7255
G1 X102.045 Y311.6436
G1 X102.1372 Y311.5412
G1 X102.207 Y311.4203
G1 X102.25 Y311.288
G1 X102.4 Y309.8609
G1 Y102.8891
G1 X102.25 Y101.462
G1 X102.2071 Y101.33
G1 X102.1374 Y101.2092
G1 X102.0446 Y101.1062
G1 X101.9325 Y101.0247
G1 X101.8051 Y100.968
G1 X101.6692 Y100.9391
G1 X101.5308
G1 X101.3949 Y100.968
G1 X101.2677 Y101.0246
G1 X101.1554 Y101.1062
G1 X101.0624 Y101.2095
G1 X100.9929 Y101.3298
G1 X100.9501 Y101.4617
G1 X100.8 Y102.8893
G1 Y309.8607
G1 X100.9501 Y311.2882
G1 X100.993 Y311.4205
G1 X101.0625 Y311.5409
G1 X101.155 Y311.6436
G1 F300.0 X99.3715 Y313.2496
G1 F800.0 X99.5403 Y313.437
G1 X100.0612 Y313.8155
G1 X100.6493 Y314.0773
G1 X101.2783 Y314.211
G1 X101.9217
G1 X102.5507 Y314.0773
G1 X103.1389 Y313.8154
G1 X103.6597 Y313.437
G1 X104.0896 Y312.9596
G1 X104.4116 Y312.4018
G1 X104.6105 Y311.7897
G1 X104.8 Y309.9867
G1 Y102.7633
G1 X104.6105 Y100.9602
G1 X104.4117 Y100.3484
G1 X104.0898 Y99.7908
G1 X103.6594 Y99.3128
G1 X103.1391 Y98.9348
G1 X102.5509 Y98.6729
G1 X101.9215 Y98.5391
G1 X101.2785
G1 X100.6491 Y98.6729
G1 X100.0611 Y98.9347
G1 X99.5407 Y99.3128
G1 X99.11 Y99.791
G1 X98.7883 Y100.3482
G1 X98.5896 Y100.96
G1 X98.4 Y102.7635
G1 Y309.9865
G1 X98.5896 Y311.7899
G1 X98.7884 Y312.402
G1 X99.1102 Y312.9593
G1 X99.3715 Y313.2496
G1 F300.0 X97.588 Y314.8555
G1 F800.0 X97.9256 Y315.2304
G1 X98.8546 Y315.9053
G1 X99.9035 Y316.3724
G1 X101.026 Y316.611
G1 X102.174
G1 X103.2965 Y316.3724
G1 X104.3455 Y315.9053
G1 X105.2745 Y315.2304
G1 X106.042 Y314.378
G1 X106.6162 Y313.3834
G1 X106.971 Y312.2915
G1 X107.2 Y310.1124
G1 Y102.6376
G1 X106.971 Y100.4584
G1 X106.6163 Y99.3668
G1 X106.0421 Y98.3723
G1 X105.2742 Y97.5194
G1 X104.3457 Y96.8448
G1 X103.2966 Y96.3778
G1 X102.1738 Y96.1391
G1 X101.0262
G1 X99.9034 Y96.3778
G1 X98.8545 Y96.8448
G1 X97.9259 Y97.5194
G1 X97.1577 Y98.3726
G1 X96.5838 Y99.3667
G1 X96.2291 Y100.4583
G1 X96.0 Y102.6378
G1 Y310.1122
G1 X96.2291 Y312.2917
G1 X96.5838 Y313.3835
G1 X97.1578 Y314.3778
G1 X97.588 Y314.8555
G1 F300.0 X95.8045 Y316.4614
G1 F800.0 X96.3109 Y317.0238
G1 X97.648 Y317.9952
G1 X99.1578 Y318.6675
G1 X100.7738 Y319.011
G1 X102.4262
G1 X104.0422 Y318.6675
G1 X105.5521 Y317.9952
G1 X106.8892 Y317.0238
G1 X107.9943 Y315.7964
G1 X108.8208 Y314.3649
G1 X109.3315 Y312.7933
G1 X109.6 Y310.2382
G1 Y102.5118
G1 X109.3315 Y99.9567
G1 X108.8208 Y98.3853
G1 X107.9945 Y96.9539
G1 X106.8889 Y95.726
G1 X105.5522 Y94.7549
G1 X104.0424 Y94.0827
G1 X102.4261 Y93.7391
G1 X100.7739
G1 X99.1576 Y94.0827
G1 X97.6479 Y94.7549
G1 X96.3111 Y95.726
G1 X95.2054 Y96.9541
G1 X94.3792 Y98.3851
G1 X93.8686 Y99.9565
G1 X93.6 Y102.512
G1 Y310.238
G1 X93.8686 Y312.7934
G1 X94.3792 Y314.365
G1 X95.2055 Y315.7962
G1 X95.8045 Y316.4614
G1 F300.0 X94.0209 Y318.0674
G1 F800.0 X94.6961 Y318.8172
G1 X96.4414 Y320.0851
G1 X98.412 Y320.9626
G1 X100.5215 Y321.411
G1 X102.6785
G1 X104.788 Y320.9626
G1 X106.7587 Y320.0851
G1 X108.5039 Y318.8172
G1 X109.9467 Y317.2149
G1 X111.0254 Y315.3464
G1 X111.692 Y313.295
G1 X112.0 Y310.364
G1 Y102.386
G1 X111.692 Y99.4549
G1 X111.0254 Y97.4037
G1 X109.9468 Y95.5355
G1 X108.5037 Y93.9327
G1 X106.7588 Y92.665
G1 X104.7881 Y91.7876
G1 X102.6783 Y91.3391
G1 X100.5217
G1 X98.4119 Y91.7876
G1 X96.4413 Y92.665
G1 X94.6964 Y93.9327
G1 X93.2531 Y95.5357
G1 X92.1746 Y97.4036
G1 X91.5081 Y99.4548
G1 X91.2 Y102.3862
G1 Y310.3638
G1 X91.5081 Y313.2951
G1 X92.1746 Y315.3466
G1 X93.2532 Y317.2147
G1 X94.0209 Y318.0674
G1 F300.0 X92.2374 Y319.6733
G1 F800.0 X93.0814 Y320.6106
G1 X95.2347 Y322.175
G1 X97.6663 Y323.2577
G1 X100.2693 Y323.811
G1 X102.9307
G1 X105.5337 Y323.2577
G1 X107.9653 Y322.175
G1 X110.1187 Y320.6106
G1 X111.8991 Y318.6333
G1 X113.2299 Y316.328
G1 X114.0525 Y313.7968
G1 X114.4 Y310.4897
G1 Y102.2603
G1 X114.0524 Y98.9532
G1 X113.23 Y96.4221
G1 X111.8992 Y94.1171
G1 X110.1185 Y92.1393
G1 X107.9654 Y90.5751
G1 X105.5339 Y89.4925
G1 X102.9306 Y88.9391
G1 X100.2694
G1 X97.6661 Y89.4925
G1 X95.2347 Y90.5751
G1 X93.0816 Y92.1393
G1 X91.3007 Y94.1172
G1 X89.97 Y96.422
G1 X89.1476 Y98.9531
G1 X88.8 Y102.2604
G1 Y310.4896
G1 X89.1476 Y313.7969
G1 X89.97 Y316.3281
G1 X91.3008 Y318.6331
G1 X92.2374 Y319.6733
G1 F300.0 X90.4539 Y321.2793
G1 F800.0 X91.4667 Y322.404
G1 X94.0281 Y324.2649
G1 X96.9205 Y325.5528
G1 X100.017 Y326.211
G1 X103.183
G1 X106.2795 Y325.5528
G1 X109.1719 Y324.2649
G1 X111.7334 Y322.404
G1 X113.8514 Y320.0517
G1 X115.4345 Y317.3095
G1 X116.4129 Y314.2985
G1 X116.8 Y310.6155
G1 Y102.1345
G1 X116.4129 Y98.4514
G1 X115.4346 Y95.4406
G1 X113.8515 Y92.6986
G1 X111.7332 Y90.3459
G1 X109.172 Y88.4852
G1 X106.2796 Y87.1974
G1 X103.1829 Y86.5391
G1 X100.0171
G1 X96.9204 Y87.1974
G1 X94.0281 Y88.4851
G1 X91.4668 Y90.3459
G1 X89.3484 Y92.6987
G1 X87.7654 Y95.4405
G1 X86.7872 Y98.4514
G1 X86.4 Y102.1346
G1 Y310.6154
G1 X86.7872 Y314.2986
G1 X87.7654 Y317.3096
G1 X89.3485 Y320.0516
G1 X90.4539 Y321.2793
G1 F300.0 X88.6704 Y322.8852
G1 F800.0 X89.852 Y324.1974
G1 X92.8215 Y326.3548
G1 X96.1747 Y327.8479
G1 X99.7648 Y328.611
G1 X103.4352
G1 X107.0253 Y327.8479
G1 X110.3785 Y326.3548
G1 X113.3481 Y324.1974
G1 X115.8038 Y321.4701
G1 X117.6391 Y318.291
G1 X118.7734 Y314.8003
G1 X119.2 Y310.7413
G1 Y102.0087
G1 X118.7734 Y97.9497
G1 X117.6391 Y94.459
G1 X115.8039 Y91.2802
G1 X113.348 Y88.5526
G1 X110.3786 Y86.3952
G1 X107.0253 Y84.9023
G1 X103.4351 Y84.1391
G1 X99.7649
G1 X96.1747 Y84.9023
G1 X92.8215 Y86.3952
G1 X89.8521 Y88.5526
G1 X87.3961 Y91.2803
G1 X85.5608 Y94.4589
G1 X84.4267 Y97.9496
G1 X84.0 Y102.0088
G1 Y310.7412
G1 X84.4267 Y314.8004
G1 X85.5608 Y318.2911
G1 X87.3961 Y321.47
G1 X88.6704 Y322.8852
G1 F300.0 X86.8868 Y324.4911
G1 F800.0 X88.2372 Y325.9908
G1 X91.6149 Y328.4447
G1 X95.429 Y330.143
G1 X99.5126 Y331.011
G1 X103.6874
G1 X107.771 Y330.143
G1 X111.5851 Y328.4447
G1 X114.9629 Y325.9908
G1 X117.7562 Y322.8886
G1 X119.8437 Y319.2726
G1 X121.1339 Y315.302
G1 X121.6 Y310.867
G1 Y101.883
G1 X121.1339 Y97.4479
G1 X119.8437 Y93.4774
G1 X117.7562 Y89.8618
G1 X114.9628 Y86.7592
G1 X111.5852 Y84.3053
G1 X107.7711 Y82.6072
G1 X103.6874 Y81.7391
G1 X99.5126
G1 X95.4289 Y82.6072
G1 X91.6149 Y84.3053
G1 X88.2373 Y86.7592
G1 X85.4437 Y89.8618
G1 X83.3562 Y93.4774
G1 X82.0662 Y97.4479
G1 X81.6 Y101.883
G1 Y310.867
G1 X82.0662 Y315.3021
G1 X83.3562 Y319.2726
G1 X85.4438 Y322.8885
G1 X86.8868 Y324.4911
G1 F300.0 X85.1033 Y326.0971
G1 F800.0 X86.6225 Y327.7842
G1 X90.4083 Y330.5346
G1 X94.6832 Y332.4381
G1 X99.2603 Y333.411
G1 X103.9397
G1 X108.5168 Y332.4381
G1 X112.7917 Y330.5346
G1 X116.5776 Y327.7842
G1 X119.7085 Y324.307
G1 X122.0483 Y320.2541
G1 X123.4944 Y315.8038
G1 X124.0 Y310.9928
G1 Y101.7572
G1 X123.4944 Y96.9462
G1 X122.0483 Y92.4959
G1 X119.7086 Y88.4433
G1 X116.5775 Y84.9658
G1 X112.7918 Y82.2154
G1 X108.5168 Y80.3121
G1 X103.9397 Y79.3391
G1 X99.2603
G1 X94.6832 Y80.3121
G1 X90.4083 Y82.2154
G1 X86.6226 Y84.9658
G1 X83.4914 Y88.4434
G1 X81.1516 Y92.4958
G1 X79.7057 Y96.9462
G1 X79.2 Y101.7572
G1 Y310.9928
G1 X79.7057 Y315.8038
G1 X81.1516 Y320.2541
G1 X83.4914 Y324.3069
G1 X85.1033 Y326.0971
G0 Z3.0
G0 X101.155 Y311.6436
G0 Z-1.0
G1 F300.0 Z-2.4
G1 F800.0 X101.2678 Y311.7256
G1 X101.3951 Y311.7822
G1 X101.5305 Y311.811
G1 X101.6695
G1 X101.8049 Y311.7822
G1 X101.9323 Y311.7255
G1 X102.045 Y311.6436
G1 X102.1372 Y311.5412
G1 X102.207 Y311.4203
G1 X102.25 Y311.288
G1 X102.4 Y309.8609
G1 Y102.8891
G1 X102.25 Y101.462
G1 X102.2071 Y101.33
G1 X102.1374 Y101.2092
G1 X102.0446 Y101.1062
G1 X101.9325 Y101.0247
G1 X101.8051 Y100.968
G1 X101.6692 Y100.9391
G1 X101.5308
G1 X101.3949 Y100.968
G1 X101.2677 Y101.0246
G1 X101.1554 Y101.1062
G1 X101.0624 Y101.2095
G1 X100.9929 Y101.3298
G1 X100.9501 Y101.4617
G1 X100.8 Y102.8893
G1 Y309.8607
G1 X100.9501 Y311.2882
G1 X100.993 Y311.4205
G1 X101.0625 Y311.5409
G1 X101.155 Y311.6436
G1 F300.0 X99.3715 Y313.2496
G1 F800.0 X99.5403 Y313.437
G1 X100.0612 Y313.8155
G1 X100.6493 Y314.0773
G1 X101.2783 Y314.211
G1 X101.9217
G1 X102.5507 Y314.0773
G1 X103.1389 Y313.8154
G1 X103.6597 Y313.437
G1 X104.0896 Y312.9596
G1 X104.4116 Y312.4018
G1 X104.6105 Y311.7897
G1 X104.8 Y309.9867
G1 Y102.7633
G1 X104.6105 Y100.9602
G1 X104.4117 Y100.3484
G1 X104.0898 Y99.7908
G1 X103.6594 Y99.3128
G1 X103.1391 Y98.9348
G1 X102.5509 Y98.6729
G1 X101.9215 Y98.5391
G1 X101.2785
G1 X100.6491 Y98.6729
G1 X100.0611 Y98.9347
G1 X99.5407 Y99.3128
G1 X99.11 Y99.791
G1 X98.7883 Y100.3482
G1 X98.5896 Y100.96
G1 X98.4 Y102.7635
G1 Y309.9865
G1 X98.5896 Y311.7899
G1 X98.7884 Y312.402
G1 X99.1102 Y312.9593
G1 X99.3715 Y313.2496
G1 F300.0 X97.588 Y314.8555
G1 F800.0 X97.9256 Y315.2304
G1 X98.8546 Y315.9053
G1 X99.9035 Y316.3724
G1 X101.026 Y316.611
G1 X102.174
G1 X103.2965 Y316.3724
G1 X104.3455 Y315.9053
G1 X105.2745 Y315.2304
G1 X106.042 Y314.378
G1 X106.6162 Y313.3834
G1 X106.971 Y312.2915
G1 X107.2 Y310.1124
G1 Y102.6376
G1 X106.971 Y100.4584
G1 X106.6163 Y99.3668
G1 X106.0421 Y98.3723
G1 X105.2742 Y97.5194
G1 X104.3457 Y96.8448
G1 X103.2966 Y96.3778
G1 X102.1738 Y96.1391
G1 X101.0262
G1 X99.9034 Y96.3778
G1 X98.8545 Y96.8448
G1 X97.9259 Y97.5194
G1 X97.1577 Y98.3726
G1 X96.5838 Y99.3667
G1 X96.2291 Y100.4583
G1 X96.0 Y102.6378
G1 Y310.1122
G1 X96.2291 Y312.2917
G1 X96.5838 Y313.3835
G1 X97.1578 Y314.3778
G1 X97.588 Y314.8555
G1 F300.0 X95.8045 Y316.4614
G1 F800.0 X96.3109 Y317.0238
G1 X97.648 Y317.9952
G1 X99.1578 Y318.6675
G1 X100.7738 Y319.011
G1 X102.4262
G1 X104.0422 Y318.6675
G1 X105.5521 Y317.9952
G1 X106.8892 Y317.0238
G1 X107.9943 Y315.7964
G1 X108.8208 Y314.3649
G1 X109.3315 Y312.7933
G1 X109.6 Y310.2382
G1 Y102.5118
G1 X109.3315 Y99.9567
G1 X108.8208 Y98.3853
G1 X107.9945 Y96.9539
G1 X106.8889 Y95.726
G1 X105.5522 Y94.7549
G1 X104.0424 Y94.0827
G1 X102.4261 Y93.7391
G1 X100.7739
G1 X99.1576 Y94.0827
G1 X97.6479 Y94.7549
G1 X96.3111 Y95.726
G1 X95.2054 Y96.9541
G1 X94.3792 Y98.3851
G1 X93.8686 Y99.9565
G1 X93.6 Y102.512
G1 Y310.238
G1 X93.8686 Y312.7934
G1 X94.3792 Y314.365
G1 X95.2055 Y315.7962
G1 X95.8045 Y316.4614
G1 F300.0 X94.0209 Y318.0674
G1 F800.0 X94.6961 Y318.8172
G1 X96.4414 Y320.0851
G1 X98.412 Y320.9626
G1 X100.5215 Y321.411
G1 X102.6785
G1 X104.788 Y320.9626
G1 X106.7587 Y320.0851
G1 X108.5039 Y318.8172
G1 X109.9467 Y317.2149
G1 X111.0254 Y315.3464
G1 X111.692 Y313.295
G1 X112.0 Y310.364
G1 Y102.386
G1 X111.692 Y99.4549
G1 X111.0254 Y97.4037
G1 X109.9468 Y95.5355
G1 X108.5037 Y93.9327
G1 X106.7588 Y92.665
G1 X104.7881 Y91.7876
G1 X102.6783 Y91.3391
G1 X100.5217
G1 X98.4119 Y91.7876
G1 X96.4413 Y92.665
G1 X94.6964 Y93.9327
G1 X93.2531 Y95.5357
G1 X92.1746 Y97.4036
G1 X91.5081 Y99.4548
G1 X91.2 Y102.3862
G1 Y310.3638
G1 X91.5081 Y313.2951
G1 X92.1746 Y315.3466
G1 X93.2532 Y317.2147
G1 X94.0209 Y318.0674
G1 F300.0 X92.2374 Y319.6733
G1 F800.0 X93.0814 Y320.6106
G1 X95.2347 Y322.175
G1 X97.6663 Y323.2577
G1 X100.2693 Y323.811
G1 X102.9307
G1 X105.5337 Y323.2577
G1 X107.9653 Y322.175
G1 X110.1187 Y320.6106
G1 X111.8991 Y318.6333
G1 X113.2299 Y316.328
G1 X114.0525 Y313.7968
G1 X114.4 Y310.4897
G1 Y102.2603
G1 X114.0524 Y98.9532
G1 X113.23 Y96.4221
G1 X111.8992 Y94.1171
G1 X110.1185 Y92.1393
G1 X107.9654 Y90.5751
G1 X105.5339 Y89.4925
G1 X102.9306 Y88.9391
G1 X100.2694
G1 X97.6661 Y89.4925
G1 X95.2347 Y90.5751
G1 X93.0816 Y92.1393
G1 X91.3007 Y94.1172
G1 X89.97 Y96.422
G1 X89.1476 Y98.9531
G1 X88.8 Y102.2604
G1 Y310.4896
G1 X89.1476 Y313.7969
G1 X89.97 Y316.3281
G1 X91.3008 Y318.6331
G1 X92.2374 Y319.6733
G1 F300.0 X90.4539 Y321.2793
G1 F800.0 X91.4667 Y322.404
G1 X94.0281 Y324.2649
G1 X96.9205 Y325.5528
G1 X100.017 Y326.211
G1 X103.183
G1 X106.2795 Y325.5528
G1 X109.1719 Y324.2649
G1 X111.7334 Y322.404
G1 X113.8514 Y320.0517
G1 X115.4345 Y317.3095
G1 X116.4129 Y314.2985
G1 X116.8 Y310.6155
G1 Y102.1345
G1 X116.4129 Y98.4514
G1 X115.4346 Y95.4406
G1 X113.8515 Y92.6986
G1 X111.7332 Y90.3459
G1 X109.172 Y88.4852
G1 X106.2796 Y87.1974
G1 X103.1829 Y86.5391
G1 X100.0171
G1 X96.9204 Y87.1974
G1 X94.0281 Y88.4851
G1 X91.4668 Y90.3459
G1 X89.3484 Y92.6987
G1 X87.7654 Y95.4405
G1 X86.7872 Y98.4514
G1 X86.4 Y102.1346
G1 Y310.6154
G1 X86.7872 Y314.2986
G1 X87.7654 Y317.3096
G1 X89.3485 Y320.0516
G1 X90.4539 Y321.2793
G1 F300.0 X88.6704 Y322.8852
G1 F800.0 X89.852 Y324.1974
G1 X92.8215 Y326.3548
G1 X96.1747 Y327.8479
G1 X99.7648 Y328.611
G1 X103.4352
G1 X107.0253 Y327.8479
G1 X110.3785 Y326.3548
G1 X113.3481 Y324.1974
G1 X115.8038 Y321.4701
G1 X117.6391 Y318.291
G1 X118.7734 Y314.8003
G1 X119.2 Y310.7413
G1 Y102.0087
G1 X118.7734 Y97.9497
G1 X117.6391 Y94.459
G1 X115.8039 Y91.2802
G1 X113.348 Y88.5526
G1 X110.3786 Y86.3952
G1 X107.0253 Y84.9023
G1 X103.4351 Y84.1391
G1 X99.7649
G1 X96.1747 Y84.9023
G1 X92.8215 Y86.3952
G1 X89.8521 Y88.5526
G1 X87.3961 Y91.2803
G1 X85.5608 Y94.4589
G1 X84.4267 Y97.9496
G1 X84.0 Y102.0088
G1 Y310.7412
G1 X84.4267 Y314.8004
G1 X85.5608 Y318.2911
G1 X87.3961 Y321.47
G1 X88.6704 Y322.8852
G1 F300.0 X86.8868 Y324.4911
G1 F800.0 X88.2372 Y325.9908
G1 X91.6149 Y328.4447
G1 X95.429 Y330.143
G1 X99.5126 Y331.011
G1 X103.6874
G1 X107.771 Y330.143
G1 X111.5851 Y328.4447
G1 X114.9629 Y325.9908
G1 X117.7562 Y322.8886
G1 X119.8437 Y319.2726
G1 X121.1339 Y315.302
G1 X121.6 Y310.867
G1 Y101.883
G1 X121.1339 Y97.4479
G1 X119.8437 Y93.4774
G1 X117.7562 Y89.8618
G1 X114.9628 Y86.7592
G1 X111.5852 Y84.3053
G1 X107.7711 Y82.6072
G1 X103.6874 Y81.7391
G1 X99.5126
G1 X95.4289 Y82.6072
G1 X91.6149 Y84.3053
G1 X88.2373 Y86.7592
G1 X85.4437 Y89.8618
G1 X83.3562 Y93.4774
G1 X82.0662 Y97.4479
G1 X81.6 Y101.883
G1 Y310.867
G1 X82.0662 Y315.3021
G1 X83.3562 Y319.2726
G1 X85.4438 Y322.8885
G1 X86.8868 Y324.4911
G1 F300.0 X85.1033 Y326.0971
G1 F800.0 X86.6225 Y327.7842
G1 X90.4083 Y330.5346
G1 X94.6832 Y332.4381
G1 X99.2603 Y333.411
G1 X103.9397
G1 X108.5168 Y332.4381
G1 X112.7917 Y330.5346
G1 X116.5776 Y327.7842
G1 X119.7085 Y324.307
G1 X122.0483 Y320.2541
G1 X123.4944 Y315.8038
G1 X124.0 Y310.9928
G1 Y101.7572
G1 X123.4944 Y96.9462
G1 X122.0483 Y92.4959
G1 X119.7086 Y88.4433
G1 X116.5775 Y84.9658
G1 X112.7918 Y82.2154
G1 X108.5168 Y80.3121
G1 X103.9397 Y79.3391
G1 X99.2603
G1 X94.6832 Y80.3121
G1 X90.4083 Y82.2154
G1 X86.6226 Y84.9658
G1 X83.4914 Y88.4434
G1 X81.1516 Y92.4958
G1 X79.7057 Y96.9462
G1 X79.2 Y101.7572
G1 Y310.9928
G1 X79.7057 Y315.8038
G1 X81.1516 Y320.2541
G1 X83.4914 Y324.3069
G1 X85.1033 Y326.0971
G0 Z3.0
G0 X101.155 Y311.6436
G0 Z-1.4
G1 F300.0 Z-2.8
G1 F800.0 X101.2678 Y311.7256
G1 X101.3951 Y311.7822
G1 X101.5305 Y311.811
G1 X101.6695
G1 X101.8049 Y311.7822
G1 X101.9323 Y311.7255
G1 X102.045 Y311.6436
G1 X102.1372 Y311.5412
G1 X102.207 Y311.4203
G1 X102.25 Y311.288
G1 X102.4 Y309.8609
G1 Y102.8891
G1 X102.25 Y101.462
G1 X102.2071 Y101.33
G1 X102.1374 Y101.2092
G1 X102.0446 Y101.1062
G1 X101.9325 Y101.0247
G1 X101.8051 Y100.968
G1 X101.6692 Y100.9391
G1 X101.5308
G1 X101.3949 Y100.968
G1 X101.2677 Y101.0246
G1 X101.1554 Y101.1062
G1 X101.0624 Y101.2095
G1 X100.9929 Y101.3298
G1 X100.9501 Y101.4617
G1 X100.8 Y102.8893
G1 Y309.8607
G1 X100.9501 Y311.2882
G1 X100.993 Y311.4205
G1 X101.0625 Y311.5409
G1 X101.155 Y311.6436
G1 F300.0 X99.3715 Y313.2496
G1 F800.0 X99.5403 Y313.437
G1 X100.0612 Y313.8155
G1 X100.6493 Y314.0773
G1 X101.2783 Y314.211
G1 X101.9217
G1 X102.5507 Y314.0773
G1 X103.1389 Y313.8154
G1 X103.6597 Y313.437
G1 X104.0896 Y312.9596
G1 X104.4116 Y312.4018
G1 X104.6105 Y311.7897
G1 X104.8 Y309.9867
G1 Y102.7633
G1 X104.6105 Y100.9602
G1 X104.4117 Y100.3484
G1 X104.0898 Y99.7908
G1 X103.6594 Y99.3128
G1 X103.1391 Y98.9348
G1 X102.5509 Y98.6729
G1 X101.9215 Y98.5391
G1 X101.2785
G1 X100.6491 Y98.6729
G1 X100.0611 Y98.9347
G1 X99.5407 Y99.3128
G1 X99.11 Y99.791
G1 X98.7883 Y100.3482
G1 X98.5896 Y100.96
G1 X98.4 Y102.7635
G1 Y309.9865
G1 X98.5896 Y311.7899
G1 X98.7884 Y312.402
G1 X99.1102 Y312.9593
G1 X99.3715 Y313.2496
G1 F300.0 X97.588 Y314.8555
G1 F800.0 X97.9256 Y315.2304
G1 X98.8546 Y315.9053
G1 X99.9035 Y316.3724
G1 X101.026 Y316.611
G1 X102.174
G1 X103.2965 Y316.3724
G1 X104.3455 Y315.9053
G1 X105.2745 Y315.2304
G1 X106.042 Y314.378
G1 X106.6162 Y313.3834
G1 X106.971 Y312.2915
G1 X107.2 Y310.1124
G1 Y102.6376
G1 X106.971 Y100.4584
G1 X106.6163 Y99.3668
G1 X106.0421 Y98.3723
G1 X105.2742 Y97.5194
G1 X104.3457 Y96.8448
G1 X103.2966 Y96.3778
G1 X102.1738 Y96.1391
G1 X101.0262
G1 X99.9034 Y96.3778
G1 X98.8545 Y96.8448
G1 X97.9259 Y97.5194
G1 X97.1577 Y98.3726
G1 X96.5838 Y99.3667
G1 X96.2291 Y100.4583
G1 X96.0 Y102.6378
G1 Y310.1122
G1 X96.2291 Y312.2917
G1 X96.5838 Y313.3835
G1 X97.1578 Y314.3778
G1 X97.588 Y314.8555
G1 F300.0 X95.8045 Y316.4614
G1 F800.0 X96.3109 Y317.0238
G1 X97.648 Y317.9952
G1 X99.1578 Y318.6675
G1 X100.7738 Y319.011
G1 X102.4262
G1 X104.0422 Y318.6675
G1 X105.5521 Y317.9952
G1 X106.8892 Y317.0238
G1 X107.9943 Y315.7964
G1 X108.8208 Y314.3649
G1 X109.3315 Y312.7933
G1 X109.6 Y310.2382
G1 Y102.5118
G1 X109.3315 Y99.9567
G1 X108.8208 Y98.3853
G1 X107.9945 Y96.9539
G1 X106.8889 Y95.726
G1 X105.5522 Y94.7549
G1 X104.0424 Y94.0827
G1 X102.4261 Y93.7391
G1 X100.7739
G1 X99.1576 Y94.0827
G1 X97.6479 Y94.7549
G1 X96.3111 Y95.726
G1 X95.2054 Y96.9541
G1 X94.3792 Y98.3851
G1 X93.8686 Y99.9565
G1 X93.6 Y102.512
G1 Y310.238
G1 X93.8686 Y312.7934
G1 X94.3792 Y314.365
G1 X95.2055 Y315.7962
G1 X95.8045 Y316.4614
G1 F300.0 X94.0209 Y318.0674
G1 F800.0 X94.6961 Y318.8172
G1 X96.4414 Y320.0851
G1 X98.412 Y320.9626
G1 X100.5215 Y321.411
G1 X102.6785
G1 X104.788 Y320.9626
G1 X106.7587 Y320.0851
G1 X108.5039 Y318.8172
G1 X109.9467 Y317.2149
G1 X111.0254 Y315.3464
G1 X111.692 Y313.295
G1 X112.0 Y310.364
G1 Y102.386
G1 X111.692 Y99.4549
G1 X111.0254 Y97.4037
G1 X109.9468 Y95.5355
G1 X108.5037 Y93.9327
G1 X106.7588 Y92.665
G1 X104.7881 Y91.7876
G1 X102.6783 Y91.3391
G1 X100.5217
G1 X98.4119 Y91.7876
G1 X96.4413 Y92.665
G1 X94.6964 Y93.9327
G1 X93.2531 Y95.5357
G1 X92.1746 Y97.4036
G1 X91.5081 Y99.4548
G1 X91.2 Y102.3862
G1 Y310.3638
G1 X91.5081 Y313.2951
G1 X92.1746 Y315.3466
G1 X93.2532 Y317.2147
G1 X94.0209 Y318.0674
G1 F300.0 X92.2374 Y319.6733
G1 F800.0 X93.0814 Y320.6106
G1 X95.2347 Y322.175
G1 X97.6663 Y323.2577
G1 X100.2693 Y323.811
G1 X102.9307
G1 X105.5337 Y323.2577
G1 X107.9653 Y322.175
G1 X110.1187 Y320.6106
G1 X111.8991 Y318.6333
G1 X113.2299 Y316.328
G1 X114.0525 Y313.7968
G1 X114.4 Y310.4897
G1 Y102.2603
G1 X114.0524 Y98.9532
G1 X113.23 Y96.4221
G1 X111.8992 Y94.1171
G1 X110.1185 Y92.1393
G1 X107.9654 Y90.5751
G1 X105.5339 Y89.4925
G1 X102.9306 Y88.9391
G1 X100.2694
G1 X97.6661 Y89.4925
G1 X95.2347 Y90.5751
G1 X93.0816 Y92.1393
G1 X91.3007 Y94.1172
G1 X89.97 Y96.422
G1 X89.1476 Y98.9531
G1 X88.8 Y102.2604
G1 Y310.4896
G1 X89.1476 Y313.7969
G1 X89.97 Y316.3281
G1 X91.3008 Y318.6331
G1 X92.2374 Y319.6733
G1 F300.0 X90.4539 Y321.2793
G1 F800.0 X91.4667 Y322.404
G1 X94.0281 Y324.2649
G1 X96.9205 Y325.5528
G1 X100.017 Y326.211
G1 X103.183
G1 X106.2795 Y325.5528
G1 X109.1719 Y324.2649
G1 X111.7334 Y322.404
G1 X113.8514 Y320.0517
G1 X115.4345 Y317.3095
G1 X116.4129 Y314.2985
G1 X116.8 Y310.6155
G1 Y102.1345
G1 X116.4129 Y98.4514
G1 X115.4346 Y95.4406
G1 X113.8515 Y92.6986
G1 X111.7332 Y90.3459
G1 X109.172 Y88.4852
G1 X106.2796 Y87.1974
G1 X103.1829 Y86.5391
G1 X100.0171
G1 X96.9204 Y87.1974
G1 X94.0281 Y88.4851
G1 X91.4668 Y90.3459
G1 X89.3484 Y92.6987
G1 X87.7654 Y95.4405
G1 X86.7872 Y98.4514
G1 X86.4 Y102.1346
G1 Y310.6154
G1 X86.7872 Y314.2986
G1 X87.7654 Y317.3096
G1 X89.3485 Y320.0516
G1 X90.4539 Y321.2793
G1 F300.0 X88.6704 Y322.8852
G1 F800.0 X89.852 Y324.1974
G1 X92.8215 Y326.3548
G1 X96.1747 Y327.8479
G1 X99.7648 Y328.611
G1 X103.4352
G1 X107.0253 Y327.8479
G1 X110.3785 Y326.3548
G1 X113.3481 Y324.1974
G1 X115.8038 Y321.4701
G1 X117.6391 Y318.291
G1 X118.7734 Y314.8003
G1 X119.2 Y310.7413
G1 Y102.0087
G1 X118.7734 Y97.9497
G1 X117.6391 Y94.459
G1 X115.8039 Y91.2802
G1 X113.348 Y88.5526
G1 X110.3786 Y86.3952
G1 X107.0253 Y84.9023
G1 X103.4351 Y84.1391
G1 X99.7649
G1 X96.1747 Y84.9023
G1 X92.8215 Y86.3952
G1 X89.8521 Y88.5526
G1 X87.3961 Y91.2803
G1 X85.5608 Y94.4589
G1 X84.4267 Y97.9496
G1 X84.0 Y102.0088
G1 Y310.7412
G1 X84.4267 Y314.8004
G1 X85.5608 Y318.2911
G1 X87.3961 Y321.47
G1 X88.6704 Y322.8852
G1 F300.0 X86.8868 Y324.4911
G1 F800.0 X88.2372 Y325.9908
G1 X91.6149 Y328.4447
G1 X95.429 Y330.143
G1 X99.5126 Y331.011
G1 X103.6874
G1 X107.771 Y330.143
G1 X111.5851 Y328.4447
G1 X114.9629 Y325.9908
G1 X117.7562 Y322.8886
G1 X119.8437 Y319.2726
G1 X121.1339 Y315.302
G1 X121.6 Y310.867
G1 Y101.883
G1 X121.1339 Y97.4479
G1 X119.8437 Y93.4774
G1 X117.7562 Y89.8618
G1 X114.9628 Y86.7592
G1 X111.5852 Y84.3053
G1 X107.7711 Y82.6072
G1 X103.6874 Y81.7391
G1 X99.5126
G1 X95.4289 Y82.6072
G1 X91.6149 Y84.3053
G1 X88.2373 Y86.7592
G1 X85.4437 Y89.8618
G1 X83.3562 Y93.4774
G1 X82.0662 Y97.4479
G1 X81.6 Y101.883
G1 Y310.867
G1 X82.0662 Y315.3021
G1 X83.3562 Y319.2726
G1 X85.4438 Y322.8885
G1 X86.8868 Y324.4911
G1 F300.0 X85.1033 Y326.0971
G1 F800.0 X86.6225 Y327.7842
G1 X90.4083 Y330.5346
G1 X94.6832 Y332.4381
G1 X99.2603 Y333.411
G1 X103.9397
G1 X108.5168 Y332.4381
G1 X112.7917 Y330.5346
G1 X116.5776 Y327.7842
G1 X119.7085 Y324.307
G1 X122.0483 Y320.2541
G1 X123.4944 Y315.8038
G1 X124.0 Y310.9928
G1 Y101.7572
G1 X123.4944 Y96.9462
G1 X122.0483 Y92.4959
G1 X119.7086 Y88.4433
G1 X116.5775 Y84.9658
G1 X112.7918 Y82.2154
G1 X108.5168 Y80.3121
G1 X103.9397 Y79.3391
G1 X99.2603
G1 X94.6832 Y80.3121
G1 X90.4083 Y82.2154
G1 X86.6226 Y84.9658
G1 X83.4914 Y88.4434
G1 X81.1516 Y92.4958
G1 X79.7057 Y96.9462
G1 X79.2 Y101.7572
G1 Y310.9928
G1 X79.7057 Y315.8038
G1 X81.1516 Y320.2541
G1 X83.4914 Y324.3069
G1 X85.1033 Y326.0971
G0 Z3.0
G0 X101.155 Y311.6436
G0 Z-1.8
G1 F300.0 Z-3.2
G1 F800.0 X101.2678 Y311.7256
G1 X101.3951 Y311.7822
G1 X101.5305 Y311.811
G1 X101.6695
G1 X101.8049 Y311.7822
G1 X101.9323 Y311.7255
G1 X102.045 Y311.6436
G1 X102.1372 Y311.5412
G1 X102.207 Y311.4203
G1 X102.25 Y311.288
G1 X102.4 Y309.8609
G1 Y102.8891
G1 X102.25 Y101.462
G1 X102.2071 Y101.33
G1 X102.1374 Y101.2092
G1 X102.0446 Y101.1062
G1 X101.9325 Y101.0247
G1 X101.8051 Y100.968
G1 X101.6692 Y100.9391
G1 X101.5308
G1 X101.3949 Y100.968
G1 X101.2677 Y101.0246
G1 X101.1554 Y101.1062
G1 X101.0624 Y101.2095
G1 X100.9929 Y101.3298
G1 X100.9501 Y101.4617
G1 X100.8 Y102.8893
G1 Y309.8607
G1 X100.9501 Y311.2882
G1 X100.993 Y311.4205
G1 X101.0625 Y311.5409
G1 X101.155 Y311.6436
G1 F300.0 X99.3715 Y313.2496
G1 F800.0 X99.5403 Y313.437
G1 X100.0612 Y313.8155
G1 X100.6493 Y314.0773
G1 X101.2783 Y314.211
G1 X101.9217
G1 X102.5507 Y314.0773
G1 X103.1389 Y313.8154
G1 X103.6597 Y313.437
G1 X104.0896 Y312.9596
G1 X104.4116 Y312.4018
G1 X104.6105 Y311.7897
G1 X104.8 Y309.9867
G1 Y102.7633
G1 X104.6105 Y100.9602
G1 X104.4117 Y100.3484
G1 X104.0898 Y99.7908
G1 X103.6594 Y99.3128
G1 X103.1391 Y98.9348
G1 X102.5509 Y98.6729
G1 X101.9215 Y98.5391
G1 X101.2785
G1 X100.6491 Y98.6729
G1 X100.0611 Y98.9347
G1 X99.5407 Y99.3128
G1 X99.11 Y99.791
G1 X98.7883 Y100.3482
G1 X98.5896 Y100.96
G1 X98.4 Y102.7635
G1 Y309.9865
G1 X98.5896 Y311.7899
G1 X98.7884 Y312.402
G1 X99.1102 Y312.9593
G1 X99.3715 Y313.2496
G1 F300.0 X97.588 Y314.8555
G1 F800.0 X97.9256 Y315.2304
G1 X98.8546 Y315.9053
G1 X99.9035 Y316.3724
G1 X101.026 Y316.611
G1 X102.174
G1 X103.2965 Y316.3724
G1 X104.3455 Y315.9053
G1 X105.2745 Y315.2304
G1 X106.042 Y314.378
G1 X106.6162 Y313.3834
G1 X106.971 Y312.2915
G1 X107.2 Y310.1124
G1 Y102.6376
G1 X106.971 Y100.4584
G1 X106.6163 Y99.3668
G1 X106.0421 Y98.3723
G1 X105.2742 Y97.5194
G1 X104.3457 Y96.8448
G1 X103.2966 Y96.3778
G1 X102.1738 Y96.1391
G1 X101.0262
G1 X99.9034 Y96.3778
G1 X98.8545 Y96.8448
G1 X97.9259 Y97.5194
G1 X97.1577 Y98.3726
G1 X96.5838 Y99.3667
G1 X96.2291 Y100.4583
G1 X96.0 Y102.6378
G1 Y310.1122
G1 X96.2291 Y312.2917
G1 X96.5838 Y313.3835
G1 X97.1578 Y314.3778
G1 X97.588 Y314.8555
G1 F300.0 X95.8045 Y316.4614
G1 F800.0 X96.3109 Y317.0238
G1 X97.648 Y317.9952
G1 X99.1578 Y318.6675
G1 X100.7738 Y319.011
G1 X102.4262
G1 X104.0422 Y318.6675
G1 X105.5521 Y317.9952
G1 X106.8892 Y317.0238
G1 X107.9943 Y315.7964
G1 X108.8208 Y314.3649
G1 X109.3315 Y312.7933
G1 X109.6 Y310.2382
G1 Y102.5118
G1 X109.3315 Y99.9567
G1 X108.8208 Y98.3853
G1 X107.9945 Y96.9539
G1 X106.8889 Y95.726
G1 X105.5522 Y94.7549
G1 X104.0424 Y94.0827
G1 X102.4261 Y93.7391
G1 X100.7739
G1 X99.1576 Y94.0827
G1 X97.6479 Y94.7549
G1 X96.3111 Y95.726
G1 X95.2054 Y96.9541
G1 X94.3792 Y98.3851
G1 X93.8686 Y99.9565
G1 X93.6 Y102.512
G1 Y310.238
G1 X93.8686 Y312.7934
G1 X94.3792 Y314.365
G1 X95.2055 Y315.7962
G1 X95.8045 Y316.4614
G1 F300.0 X94.0209 Y318.0674
G1 F800.0 X94.6961 Y318.8172
G1 X96.4414 Y320.0851
G1 X98.412 Y320.9626
G1 X100.5215 Y321.411
G1 X102.6785
G1 X104.788 Y320.9626
G1 X106.7587 Y320.0851
G1 X108.5039 Y318.8172
G1 X109.9467 Y317.2149
G1 X111.0254 Y315.3464
G1 X111.692 Y313.295
G1 X112.0 Y310.364
G1 Y102.386
G1 X111.692 Y99.4549
G1 X111.0254 Y97.4037
G1 X109.9468 Y95.5355
G1 X108.5037 Y93.9327
G1 X106.7588 Y92.665
G1 X104.7881 Y91.7876
G1 X102.6783 Y91.3391
G1 X100.5217
G1 X98.4119 Y91.7876
G1 X96.4413 Y92.665
G1 X94.6964 Y93.9327
G1 X93.2531 Y95.5357
G1 X92.1746 Y97.4036
G1 X91.5081 Y99.4548
G1 X91.2 Y102.3862
G1 Y310.3638
G1 X91.5081 Y313.2951
G1 X92.1746 Y315.3466
G1 X93.2532 Y317.2147
G1 X94.0209 Y318.0674
G1 F300.0 X92.2374 Y319.6733
G1 F800.0 X93.0814 Y320.6106
G1 X95.2347 Y322.175
G1 X97.6663 Y323.2577
G1 X100.2693 Y323.811
G1 X102.9307
G1 X105.5337 Y323.2577
G1 X107.9653 Y322.175
G1 X110.1187 Y320.6106
G1 X111.8991 Y318.6333
G1 X113.2299 Y316.328
G1 X114.0525 Y313.7968
G1 X114.4 Y310.4897
G1 Y102.2603
G1 X114.0524 Y98.9532
G1 X113.23 Y96.4221
G1 X111.8992 Y94.1171
G1 X110.1185 Y92.1393
G1 X107.9654 Y90.5751
G1 X105.5339 Y89.4925
G1 X102.9306 Y88.9391
G1 X100.2694
G1 X97.6661 Y89.4925
G1 X95.2347 Y90.5751
G1 X93.0816 Y92.1393
G1 X91.3007 Y94.1172
G1 X89.97 Y96.422
G1 X89.1476 Y98.9531
G1 X88.8 Y102.2604
G1 Y310.4896
G1 X89.1476 Y313.7969
G1 X89.97 Y316.3281
G1 X91.3008 Y318.6331
G1 X92.2374 Y319.6733
G1 F300.0 X90.4539 Y321.2793
G1 F800.0 X91.4667 Y322.404
G1 X94.0281 Y324.2649
G1 X96.9205 Y325.5528
G1 X100.017 Y326.211
G1 X103.183
G1 X106.2795 Y325.5528
G1 X109.1719 Y324.2649
G1 X111.7334 Y322.404
G1 X113.8514 Y320.0517
G1 X115.4345 Y317.3095
G1 X116.4129 Y314.2985
G1 X116.8 Y310.6155
G1 Y102.1345
G1 X116.4129 Y98.4514
G1 X115.4346 Y95.4406
G1 X113.8515 Y92.6986
G1 X111.7332 Y90.3459
G1 X109.172 Y88.4852
G1 X106.2796 Y87.1974
G1 X103.1829 Y86.5391
G1 X100.0171
G1 X96.9204 Y87.1974
G1 X94.0281 Y88.4851
G1 X91.4668 Y90.3459
G1 X89.3484 Y92.6987
G1 X87.7654 Y95.4405
G1 X86.7872 Y98.4514
G1 X86.4 Y102.1346
G1 Y310.6154
G1 X86.7872 Y314.2986
G1 X87.7654 Y317.3096
G1 X89.3485 Y320.0516
G1 X90.4539 Y321.2793
G1 F300.0 X88.6704 Y322.8852
G1 F800.0 X89.852 Y324.1974
G1 X92.8215 Y326.3548
G1 X96.1747 Y327.8479
G1 X99.7648 Y328.611
G1 X103.4352
G1 X107.0253 Y327.8479
G1 X110.3785 Y326.3548
G1 X113.3481 Y324.1974
G1 X115.8038 Y321.4701
G1 X117.6391 Y318.291
G1 X118.7734 Y314.8003
G1 X119.2 Y310.7413
G1 Y102.0087
G1 X118.7734 Y97.9497
G1 X117.6391 Y94.459
G1 X115.8039 Y91.2802
G1 X113.348 Y88.5526
G1 X110.3786 Y86.3952
G1 X107.0253 Y84.9023
G1 X103.4351 Y84.1391
G1 X99.7649
G1 X96.1747 Y84.9023
G1 X92.8215 Y86.3952
G1 X89.8521 Y88.5526
G1 X87.3961 Y91.2803
G1 X85.5608 Y94.4589
G1 X84.4267 Y97.9496
G1 X84.0 Y102.0088
G1 Y310.7412
G1 X84.4267 Y314.8004
G1 X85.5608 Y318.2911
G1 X87.3961 Y321.47
G1 X88.6704 Y322.8852
G1 F300.0 X86.8868 Y324.4911
G1 F800.0 X88.2372 Y325.9908
G1 X91.6149 Y328.4447
G1 X95.429 Y330.143
G1 X99.5126 Y331.011
G1 X103.6874
G1 X107.771 Y330.143
G1 X111.5851 Y328.4447
G1 X114.9629 Y325.9908
G1 X117.7562 Y322.8886
G1 X119.8437 Y319.2726
G1 X121.1339 Y315.302
G1 X121.6 Y310.867
G1 Y101.883
G1 X121.1339 Y97.4479
G1 X119.8437 Y93.4774
G1 X117.7562 Y89.8618
G1 X114.9628 Y86.7592
G1 X111.5852 Y84.3053
G1 X107.7711 Y82.6072
G1 X103.6874 Y81.7391
G1 X99.5126
G1 X95.4289 Y82.6072
G1 X91.6149 Y84.3053
G1 X88.2373 Y86.7592
G1 X85.4437 Y89.8618
G1 X83.3562 Y93.4774
G1 X82.0662 Y97.4479
G1 X81.6 Y101.883
G1 Y310.867
G1 X82.0662 Y315.3021
G1 X83.3562 Y319.2726
G1 X85.4438 Y322.8885
G1 X86.8868 Y324.4911
G1 F300.0 X85.1033 Y326.0971
G1 F800.0 X86.6225 Y327.7842
G1 X90.4083 Y330.5346
G1 X94.6832 Y332.4381
G1 X99.2603 Y333.411
G1 X103.9397
G1 X108.5168 Y332.4381
G1 X112.7917 Y330.5346
G1 X116.5776 Y327.7842
G1 X119.7085 Y324.307
G1 X122.0483 Y320.2541
G1 X123.4944 Y315.8038
G1 X124.0 Y310.9928
G1 Y101.7572
G1 X123.4944 Y96.9462
G1 X122.0483 Y92.4959
G1 X119.7086 Y88.4433
G1 X116.5775 Y84.9658
G1 X112.7918 Y82.2154
G1 X108.5168 Y80.3121
G1 X103.9397 Y79.3391
G1 X99.2603
G1 X94.6832 Y80.3121
G1 X90.4083 Y82.2154
G1 X86.6226 Y84.9658
G1 X83.4914 Y88.4434
G1 X81.1516 Y92.4958
G1 X79.7057 Y96.9462
G1 X79.2 Y101.7572
G1 Y310.9928
G1 X79.7057 Y315.8038
G1 X81.1516 Y320.2541
G1 X83.4914 Y324.3069
G1 X85.1033 Y326.0971
G0 Z3.0
G0 X101.155 Y311.6436
G0 Z-2.2
G1 F300.0 Z-3.6
G1 F800.0 X101.2678 Y311.7256
G1 X101.3951 Y311.7822
G1 X101.5305 Y311.811
G1 X101.6695
G1 X101.8049 Y311.7822
G1 X101.9323 Y311.7255
G1 X102.045 Y311.6436
G1 X102.1372 Y311.5412
G1 X102.207 Y311.4203
G1 X102.25 Y311.288
G1 X102.4 Y309.8609
G1 Y102.8891
G1 X102.25 Y101.462
G1 X102.2071 Y101.33
G1 X102.1374 Y101.2092
G1 X102.0446 Y101.1062
G1 X101.9325 Y101.0247
G1 X101.8051 Y100.968
G1 X101.6692 Y100.9391
G1 X101.5308
G1 X101.3949 Y100.968
G1 X101.2677 Y101.0246
G1 X101.1554 Y101.1062
G1 X101.0624 Y101.2095
G1 X100.9929 Y101.3298
G1 X100.9501 Y101.4617
G1 X100.8 Y102.8893
G1 Y309.8607
G1 X100.9501 Y311.2882
G1 X100.993 Y311.4205
G1 X101.0625 Y311.5409
G1 X101.155 Y311.6436
G1 F300.0 X99.3715 Y313.2496
G1 F800.0 X99.5403 Y313.437
G1 X100.0612 Y313.8155
G1 X100.6493 Y314.0773
G1 X101.2783 Y314.211
G1 X101.9217
G1 X102.5507 Y314.0773
G1 X103.1389 Y313.8154
G1 X103.6597 Y313.437
G1 X104.0896 Y312.9596
G1 X104.4116 Y312.4018
G1 X104.6105 Y311.7897
G1 X104.8 Y309.9867
G1 Y102.7633
G1 X104.6105 Y100.9602
G1 X104.4117 Y100.3484
G1 X104.0898 Y99.7908
G1 X103.6594 Y99.3128
G1 X103.1391 Y98.9348
G1 X102.5509 Y98.6729
G1 X101.9215 Y98.5391
G1 X101.2785
G1 X100.6491 Y98.6729
G1 X100.0611 Y98.9347
G1 X99.5407 Y99.3128
G1 X99.11 Y99.791
G1 X98.7883 Y100.3482
G1 X98.5896 Y100.96
G1 X98.4 Y102.7635
G1 Y309.9865
G1 X98.5896 Y311.7899
G1 X98.7884 Y312.402
G1 X99.1102 Y312.9593
G1 X99.3715 Y313.2496
G1 F300.0 X97.588 Y314.8555
G1 F800.0 X97.9256 Y315.2304
G1 X98.8546 Y315.9053
G1 X99.9035 Y316.3724
G1 X101.026 Y316.611
G1 X102.174
G1 X103.2965 Y316.3724
G1 X104.3455 Y315.9053
G1 X105.2745 Y315.2304
G1 X106.042 Y314.378
G1 X106.6162 Y313.3834
G1 X106.971 Y312.2915
G1 X107.2 Y310.1124
G1 Y102.6376
G1 X106.971 Y100.4584
G1 X106.6163 Y99.3668
G1 X106.0421 Y98.3723
G1 X105.2742 Y97.5194
G1 X104.3457 Y96.8448
G1 X103.2966 Y96.3778
G1 X102.1738 Y96.1391
G1 X101.0262
G1 X99.9034 Y96.3778
G1 X98.8545 Y96.8448
G1 X97.9259 Y97.5194
G1 X97.1577 Y98.3726
G1 X96.5838 Y99.3667
G1 X96.2291 Y100.4583
G1 X96.0 Y102.6378
G1 Y310.1122
G1 X96.2291 Y312.2917
G1 X96.5838 Y313.3835
G1 X97.1578 Y314.3778
G1 X97.588 Y314.8555
G1 F300.0 X95.8045 Y316.4614
G1 F800.0 X96.3109 Y317.0238
G1 X97.648 Y317.9952
G1 X99.1578 Y318.6675
G1 X100.7738 Y319.011
G1 X102.4262
G1 X104.0422 Y318.6675
G1 X105.5521 Y317.9952
G1 X106.8892 Y317.0238
G1 X107.9943 Y315.7964
G1 X108.8208 Y314.3649
G1 X109.3315 Y312.7933
G1 X109.6 Y310.2382
G1 Y102.5118
G1 X109.3315 Y99.9567
G1 X108.8208 Y98.3853
G1 X107.9945 Y96.9539
G1 X106.8889 Y95.726
G1 X105.5522 Y94.7549
G1 X104.0424 Y94.0827
G1 X102.4261 Y93.7391
G1 X100.7739
G1 X99.1576 Y94.0827
G1 X97.6479 Y94.7549
G1 X96.3111 Y95.726
G1 X95.2054 Y96.9541
G1 X94.3792 Y98.3851
G1 X93.8686 Y99.9565
G1 X93.6 Y102.512
G1 Y310.238
G1 X93.8686 Y312.7934
G1 X94.3792 Y314.365
G1 X95.2055 Y315.7962
G1 X95.8045 Y316.4614
G1 F300.0 X94.0209 Y318.0674
G1 F800.0 X94.6961 Y318.8172
G1 X96.4414 Y320.0851
G1 X98.412 Y320.9626
G1 X100.5215 Y321.411
G1 X102.6785
G1 X104.788 Y320.9626
G1 X106.7587 Y320.0851
G1 X108.5039 Y318.8172
G1 X109.9467 Y317.2149
G1 X111.0254 Y315.3464
G1 X111.692 Y313.295
G1 X112.0 Y310.364
G1 Y102.386
G1 X111.692 Y99.4549
G1 X111.0254 Y97.4037
G1 X109.9468 Y95.5355
G1 X108.5037 Y93.9327
G1 X106.7588 Y92.665
G1 X104.7881 Y91.7876
G1 X102.6783 Y91.3391
G1 X100.5217
G1 X98.4119 Y91.7876
G1 X96.4413 Y92.665
G1 X94.6964 Y93.9327
G1 X93.2531 Y95.5357
G1 X92.1746 Y97.4036
G1 X91.5081 Y99.4548
G1 X91.2 Y102.3862
G1 Y310.3638
G1 X91.5081 Y313.2951
G1 X92.1746 Y315.3466
G1 X93.2532 Y317.2147
G1 X94.0209 Y318.0674
G1 F300.0 X92.2374 Y319.6733
G1 F800.0 X93.0814 Y320.6106
G1 X95.2347 Y322.175
G1 X97.6663 Y323.2577
G1 X100.2693 Y323.811
G1 X102.9307
G1 X105.5337 Y323.2577
G1 X107.9653 Y322.175
G1 X110.1187 Y320.6106
G1 X111.8991 Y318.6333
G1 X113.2299 Y316.328
G1 X114.0525 Y313.7968
G1 X114.4 Y310.4897
G1 Y102.2603
G1 X114.0524 Y98.9532
G1 X113.23 Y96.4221
G1 X111.8992 Y94.1171
G1 X110.1185 Y92.1393
G1 X107.9654 Y90.5751
G1 X105.5339 Y89.4925
G1 X102.9306 Y88.9391
G1 X100.2694
G1 X97.6661 Y89.4925
G1 X95.2347 Y90.5751
G1 X93.0816 Y92.1393
G1 X91.3007 Y94.1172
G1 X89.97 Y96.422
G1 X89.1476 Y98.9531
G1 X88.8 Y102.2604
G1 Y310.4896
G1 X89.1476 Y313.7969
G1 X89.97 Y316.3281
G1 X91.3008 Y318.6331
G1 X92.2374 Y319.6733
G1 F300.0 X90.4539 Y321.2793
G1 F800.0 X91.4667 Y322.404
G1 X94.0281 Y324.2649
G1 X96.9205 Y325.5528
G1 X100.017 Y326.211
G1 X103.183
G1 X106.2795 Y325.5528
G1 X109.1719 Y324.2649
G1 X111.7334 Y322.404
G1 X113.8514 Y320.0517
G1 X115.4345 Y317.3095
G1 X116.4129 Y314.2985
G1 X116.8 Y310.6155
G1 Y102.1345
G1 X116.4129 Y98.4514
G1 X115.4346 Y95.4406
G1 X113.8515 Y92.6986
G1 X111.7332 Y90.3459
G1 X109.172 Y88.4852
G1 X106.2796 Y87.1974
G1 X103.1829 Y86.5391
G1 X100.0171
G1 X96.9204 Y87.1974
G1 X94.0281 Y88.4851
G1 X91.4668 Y90.3459
G1 X89.3484 Y92.6987
G1 X87.7654 Y95.4405
G1 X86.7872 Y98.4514
G1 X86.4 Y102.1346
G1 Y310.6154
G1 X86.7872 Y314.2986
G1 X87.7654 Y317.3096
G1 X89.3485 Y320.0516
G1 X90.4539 Y321.2793
G1 F300.0 X88.6704 Y322.8852
G1 F800.0 X89.852 Y324.1974
G1 X92.8215 Y326.3548
G1 X96.1747 Y327.8479
G1 X99.7648 Y328.611
G1 X103.4352
G1 X107.0253 Y327.8479
G1 X110.3785 Y326.3548
G1 X113.3481 Y324.1974
G1 X115.8038 Y321.4701
G1 X117.6391 Y318.291
G1 X118.7734 Y314.8003
G1 X119.2 Y310.7413
G1 Y102.0087
G1 X118.7734 Y97.9497
G1 X117.6391 Y94.459
G1 X115.8039 Y91.2802
G1 X113.348 Y88.5526
G1 X110.3786 Y86.3952
G1 X107.0253 Y84.9023
G1 X103.4351 Y84.1391
G1 X99.7649
G1 X96.1747 Y84.9023
G1 X92.8215 Y86.3952
G1 X89.8521 Y88.5526
G1 X87.3961 Y91.2803
G1 X85.5608 Y94.4589
G1 X84.4267 Y97.9496
G1 X84.0 Y102.0088
G1 Y310.7412
G1 X84.4267 Y314.8004
G1 X85.5608 Y318.2911
G1 X87.3961 Y321.47
G1 X88.6704 Y322.8852
G1 F300.0 X86.8868 Y324.4911
G1 F800.0 X88.2372 Y325.9908
G1 X91.6149 Y328.4447
G1 X95.429 Y330.143
G1 X99.5126 Y331.011
G1 X103.6874
G1 X107.771 Y330.143
G1 X111.5851 Y328.4447
G1 X114.9629 Y325.9908
G1 X117.7562 Y322.8886
G1 X119.8437 Y319.2726
G1 X121.1339 Y315.302
G1 X121.6 Y310.867
G1 Y101.883
G1 X121.1339 Y97.4479
G1 X119.8437 Y93.4774
G1 X117.7562 Y89.8618
G1 X114.9628 Y86.7592
G1 X111.5852 Y84.3053
G1 X107.7711 Y82.6072
G1 X103.6874 Y81.7391
G1 X99.5126
G1 X95.4289 Y82.6072
G1 X91.6149 Y84.3053
G1 X88.2373 Y86.7592
G1 X85.4437 Y89.8618
G1 X83.3562 Y93.4774
G1 X82.0662 Y97.4479
G1 X81.6 Y101.883
G1 Y310.867
G1 X82.0662 Y315.3021
G1 X83.3562 Y319.2726
G1 X85.4438 Y322.8885
G1 X86.8868 Y324.4911
G1 F300.0 X85.1033 Y326.0971
G1 F800.0 X86.6225 Y327.7842
G1 X90.4083 Y330.5346
G1 X94.6832 Y332.4381
G1 X99.2603 Y333.411
G1 X103.9397
G1 X108.5168 Y332.4381
G1 X112.7917 Y330.5346
G1 X116.5776 Y327.7842
G1 X119.7085 Y324.307
G1 X122.0483 Y320.2541
G1 X123.4944 Y315.8038
G1 X124.0 Y310.9928
G1 Y101.7572
G1 X123.4944 Y96.9462
G1 X122.0483 Y92.4959
G1 X119.7086 Y88.4433
G1 X116.5775 Y84.9658
G1 X112.7918 Y82.2154
G1 X108.5168 Y80.3121
G1 X103.9397 Y79.3391
G1 X99.2603
G1 X94.6832 Y80.3121
G1 X90.4083 Y82.2154
G1 X86.6226 Y84.9658
G1 X83.4914 Y88.4434
G1 X81.1516 Y92.4958
G1 X79.7057 Y96.9462
G1 X79.2 Y101.7572
G1 Y310.9928
G1 X79.7057 Y315.8038
G1 X81.1516 Y320.2541
G1 X83.4914 Y324.3069
G1 X85.1033 Y326.0971
G0 Z3.0
G0 X101.155 Y311.6436
G0 Z-2.6
G1 F300.0 Z-4.0
G1 F800.0 X101.2678 Y311.7256
G1 X101.3951 Y311.7822
G1 X101.5305 Y311.811
G1 X101.6695
G1 X101.8049 Y311.7822
G1 X101.9323 Y311.7255
G1 X102.045 Y311.6436
G1 X102.1372 Y311.5412
G1 X102.207 Y311.4203
G1 X102.25 Y311.288
G1 X102.4 Y309.8609
G1 Y102.8891
G1 X102.25 Y101.462
G1 X102.2071 Y101.33
G1 X102.1374 Y101.2092
G1 X102.0446 Y101.1062
G1 X101.9325 Y101.0247
G1 X101.8051 Y100.968
G1 X101.6692 Y100.9391
G1 X101.5308
G1 X101.3949 Y100.968
G1 X101.2677 Y101.0246
G1 X101.1554 Y101.1062
G1 X101.0624 Y101.2095
G1 X100.9929 Y101.3298
G1 X100.9501 Y101.4617
G1 X100.8 Y102.8893
G1 Y309.8607
G1 X100.9501 Y311.2882
G1 X100.993 Y311.4205
G1 X101.0625 Y311.5409
G1 X101.155 Y311.6436
G1 F300.0 X99.3715 Y313.2496
G1 F800.0 X99.5403 Y313.437
G1 X100.0612 Y313.8155
G1 X100.6493 Y314.0773
G1 X101.2783 Y314.211
G1 X101.9217
G1 X102.5507 Y314.0773
G1 X103.1389 Y313.8154
G1 X103.6597 Y313.437
G1 X104.0896 Y312.9596
G1 X104.4116 Y312.4018
G1 X104.6105 Y311.7897
G1 X104.8 Y309.9867
G1 Y102.7633
G1 X104.6105 Y100.9602
G1 X104.4117 Y100.3484
G1 X104.0898 Y99.7908
G1 X103.6594 Y99.3128
G1 X103.1391 Y98.9348
G1 X102.5509 Y98.6729
G1 X101.9215 Y98.5391
G1 X101.2785
G1 X100.6491 Y98.6729
G1 X100.0611 Y98.9347
G1 X99.5407 Y99.3128
G1 X99.11 Y99.791
G1 X98.7883 Y100.3482
G1 X98.5896 Y100.96
G1 X98.4 Y102.7635
G1 Y309.9865
G1 X98.5896 Y311.7899
G1 X98.7884 Y312.402
G1 X99.1102 Y312.9593
G1 X99.3715 Y313.2496
G1 F300.0 X97.588 Y314.8555
G1 F800.0 X97.9256 Y315.2304
G1 X98.8546 Y315.9053
G1 X99.9035 Y316.3724
G1 X101.026 Y316.611
G1 X102.174
G1 X103.2965 Y316.3724
G1 X104.3455 Y315.9053
G1 X105.2745 Y315.2304
G1 X106.042 Y314.378
G1 X106.6162 Y313.3834
G1 X106.971 Y312.2915
G1 X107.2 Y310.1124
G1 Y102.6376
G1 X106.971 Y100.4584
G1 X106.6163 Y99.3668
G1 X106.0421 Y98.3723
G1 X105.2742 Y97.5194
G1 X104.3457 Y96.8448
G1 X103.2966 Y96.3778
G1 X102.1738 Y96.1391
G1 X101.0262
G1 X99.9034 Y96.3778
G1 X98.8545 Y96.8448
G1 X97.9259 Y97.5194
G1 X97.1577 Y98.3726
G1 X96.5838 Y99.3667
G1 X96.2291 Y100.4583
G1 X96.0 Y102.6378
G1 Y310.1122
G1 X96.2291 Y312.2917
G1 X96.5838 Y313.3835
G1 X97.1578 Y314.3778
G1 X97.588 Y314.8555
G1 F300.0 X95.8045 Y316.4614
G1 F800.0 X96.3109 Y317.0238
G1 X97.648 Y317.9952
G1 X99.1578 Y318.6675
G1 X100.7738 Y319.011
G1 X102.4262
G1 X104.0422 Y318.6675
G1 X105.5521 Y317.9952
G1 X106.8892 Y317.0238
G1 X107.9943 Y315.7964
G1 X108.8208 Y314.3649
G1 X109.3315 Y312.7933
G1 X109.6 Y310.2382
G1 Y102.5118
G1 X109.3315 Y99.9567
G1 X108.8208 Y98.3853
G1 X107.9945 Y96.9539
G1 X106.8889 Y95.726
G1 X105.5522 Y94.7549
G1 X104.0424 Y94.0827
G1 X102.4261 Y93.7391
G1 X100.7739
G1 X99.1576 Y94.0827
G1 X97.6479 Y94.7549
G1 X96.3111 Y95.726
G1 X95.2054 Y96.9541
G1 X94.3792 Y98.3851
G1 X93.8686 Y99.9565
G1 X93.6 Y102.512
G1 Y310.238
G1 X93.8686 Y312.7934
G1 X94.3792 Y314.365
G1 X95.2055 Y315.7962
G1 X95.8045 Y316.4614
G1 F300.0 X94.0209 Y318.0674
G1 F800.0 X94.6961 Y318.8172
G1 X96.4414 Y320.0851
G1 X98.412 Y320.9626
G1 X100.5215 Y321.411
G1 X102.6785
G1 X104.788 Y320.9626
G1 X106.7587 Y320.0851
G1 X108.5039 Y318.8172
G1 X109.9467 Y317.2149
G1 X111.0254 Y315.3464
G1 X111.692 Y313.295
G1 X112.0 Y310.364
G1 Y102.386
G1 X111.692 Y99.4549
G1 X111.0254 Y97.4037
G1 X109.9468 Y95.5355
G1 X108.5037 Y93.9327
G1 X106.7588 Y92.665
G1 X104.7881 Y91.7876
G1 X102.6783 Y91.3391
G1 X100.5217
G1 X98.4119 Y91.7876
G1 X96.4413 Y92.665
G1 X94.6964 Y93.9327
G1 X93.2531 Y95.5357
G1 X92.1746 Y97.4036
G1 X91.5081 Y99.4548
G1 X91.2 Y102.3862
G1 Y310.3638
G1 X91.5081 Y313.2951
G1 X92.1746 Y315.3466
G1 X93.2532 Y317.2147
G1 X94.0209 Y318.0674
G1 F300.0 X92.2374 Y319.6733
G1 F800.0 X93.0814 Y320.6106
G1 X95.2347 Y322.175
G1 X97.6663 Y323.2577
G1 X100.2693 Y323.811
G1 X102.9307
G1 X105.5337 Y323.2577
G1 X107.9653 Y322.175
G1 X110.1187 Y320.6106
G1 X111.8991 Y318.6333
G1 X113.2299 Y316.328
G1 X114.0525 Y313.7968
G1 X114.4 Y310.4897
G1 Y102.2603
G1 X114.0524 Y98.9532
G1 X113.23 Y96.4221
G1 X111.8992 Y94.1171
G1 X110.1185 Y92.1393
G1 X107.9654 Y90.5751
G1 X105.5339 Y89.4925
G1 X102.9306 Y88.9391
G1 X100.2694
G1 X97.6661 Y89.4925
G1 X95.2347 Y90.5751
G1 X93.0816 Y92.1393
G1 X91.3007 Y94.1172
G1 X89.97 Y96.422
G1 X89.1476 Y98.9531
G1 X88.8 Y102.2604
G1 Y310.4896
G1 X89.1476 Y313.7969
G1 X89.97 Y316.3281
G1 X91.3008 Y318.6331
G1 X92.2374 Y319.6733
G1 F300.0 X90.4539 Y321.2793
G1 F800.0 X91.4667 Y322.404
G1 X94.0281 Y324.2649
G1 X96.9205 Y325.5528
G1 X100.017 Y326.211
G1 X103.183
G1 X106.2795 Y325.5528
G1 X109.1719 Y324.2649
G1 X111.7334 Y322.404
G1 X113.8514 Y320.0517
G1 X115.4345 Y317.3095
G1 X116.4129 Y314.2985
G1 X116.8 Y310.6155
G1 Y102.1345
G1 X116.4129 Y98.4514
G1 X115.4346 Y95.4406
G1 X113.8515 Y92.6986
G1 X111.7332 Y90.3459
G1 X109.172 Y88.4852
G1 X106.2796 Y87.1974
G1 X103.1829 Y86.5391
G1 X100.0171
G1 X96.9204 Y87.1974
G1 X94.0281 Y88.4851
G1 X91.4668 Y90.3459
G1 X89.3484 Y92.6987
G1 X87.7654 Y95.4405
G1 X86.7872 Y98.4514
G1 X86.4 Y102.1346
G1 Y310.6154
G1 X86.7872 Y314.2986
G1 X87.7654 Y317.3096
G1 X89.3485 Y320.0516
G1 X90.4539 Y321.2793
G1 F300.0 X88.6704 Y322.8852
G1 F800.0 X89.852 Y324.1974
G1 X92.8215 Y326.3548
G1 X96.1747 Y327.8479
G1 X99.7648 Y328.611
G1 X103.4352
G1 X107.0253 Y327.8479
G1 X110.3785 Y326.3548
G1 X113.3481 Y324.1974
G1 X115.8038 Y321.4701
G1 X117.6391 Y318.291
G1 X118.7734 Y314.8003
G1 X119.2 Y310.7413
G1 Y102.0087
G1 X118.7734 Y97.9497
G1 X117.6391 Y94.459
G1 X115.8039 Y91.2802
G1 X113.348 Y88.5526
G1 X110.3786 Y86.3952
G1 X107.0253 Y84.9023
G1 X103.4351 Y84.1391
G1 X99.7649
G1 X96.1747 Y84.9023
G1 X92.8215 Y86.3952
G1 X89.8521 Y88.5526
G1 X87.3961 Y91.2803
G1 X85.5608 Y94.4589
G1 X84.4267 Y97.9496
G1 X84.0 Y102.0088
G1 Y310.7412
G1 X84.4267 Y314.8004
G1 X85.5608 Y318.2911
G1 X87.3961 Y321.47
G1 X88.6704 Y322.8852
G1 F300.0 X86.8868 Y324.4911
G1 F800.0 X88.2372 Y325.9908
G1 X91.6149 Y328.4447
G1 X95.429 Y330.143
G1 X99.5126 Y331.011
G1 X103.6874
G1 X107.771 Y330.143
G1 X111.5851 Y328.4447
G1 X114.9629 Y325.9908
G1 X117.7562 Y322.8886
G1 X119.8437 Y319.2726
G1 X121.1339 Y315.302
G1 X121.6 Y310.867
G1 Y101.883
G1 X121.1339 Y97.4479
G1 X119.8437 Y93.4774
G1 X117.7562 Y89.8618
G1 X114.9628 Y86.7592
G1 X111.5852 Y84.3053
G1 X107.7711 Y82.6072
G1 X103.6874 Y81.7391
G1 X99.5126
G1 X95.4289 Y82.6072
G1 X91.6149 Y84.3053
G1 X88.2373 Y86.7592
G1 X85.4437 Y89.8618
G1 X83.3562 Y93.4774
G1 X82.0662 Y97.4479
G1 X81.6 Y101.883
G1 Y310.867
G1 X82.0662 Y315.3021
G1 X83.3562 Y319.2726
G1 X85.4438 Y322.8885
G1 X86.8868 Y324.4911
G1 F300.0 X85.1033 Y326.0971
G1 F800.0 X86.6225 Y327.7842
G1 X90.4083 Y330.5346
G1 X94.6832 Y332.4381
G1 X99.2603 Y333.411
G1 X103.9397
G1 X108.5168 Y332.4381
G1 X112.7917 Y330.5346
G1 X116.5776 Y327.7842
G1 X119.7085 Y324.307
G1 X122.0483 Y320.2541
G1 X123.4944 Y315.8038
G1 X124.0 Y310.9928
G1 Y101.7572
G1 X123.4944 Y96.9462
G1 X122.0483 Y92.4959
G1 X119.7086 Y88.4433
G1 X116.5775 Y84.9658
G1 X112.7918 Y82.2154
G1 X108.5168 Y80.3121
G1 X103.9397 Y79.3391
G1 X99.2603
G1 X94.6832 Y80.3121
G1 X90.4083 Y82.2154
G1 X86.6226 Y84.9658
G1 X83.4914 Y88.4434
G1 X81.1516 Y92.4958
G1 X79.7057 Y96.9462
G1 X79.2 Y101.7572
G1 Y310.9928
G1 X79.7057 Y315.8038
G1 X81.1516 Y320.2541
G1 X83.4914 Y324.3069
G1 X85.1033 Y326.0971
G0 Z3.0
G0 X101.155 Y311.6436
G0 Z-3.0
G1 F300.0 Z-4.4
G1 F800.0 X101.2678 Y311.7256
G1 X101.3951 Y311.7822
G1 X101.5305 Y311.811
G1 X101.6695
G1 X101.8049 Y311.7822
G1 X101.9323 Y311.7255
G1 X102.045 Y311.6436
G1 X102.1372 Y311.5412
G1 X102.207 Y311.4203
G1 X102.25 Y311.288
G1 X102.4 Y309.8609
G1 Y102.8891
G1 X102.25 Y101.462
G1 X102.2071 Y101.33
G1 X102.1374 Y101.2092
G1 X102.0446 Y101.1062
G1 X101.9325 Y101.0247
G1 X101.8051 Y100.968
G1 X101.6692 Y100.9391
G1 X101.5308
G1 X101.3949 Y100.968
G1 X101.2677 Y101.0246
G1 X101.1554 Y101.1062
G1 X101.0624 Y101.2095
G1 X100.9929 Y101.3298
G1 X100.9501 Y101.4617
G1 X100.8 Y102.8893
G1 Y309.8607
G1 X100.9501 Y311.2882
G1 X100.993 Y311.4205
G1 X101.0625 Y311.5409
G1 X101.155 Y311.6436
G1 F300.0 X99.3715 Y313.2496
G1 F800.0 X99.5403 Y313.437
G1 X100.0612 Y313.8155
G1 X100.6493 Y314.0773
G1 X101.2783 Y314.211
G1 X101.9217
G1 X102.5507 Y314.0773
G1 X103.1389 Y313.8154
G1 X103.6597 Y313.437
G1 X104.0896 Y312.9596
G1 X104.4116 Y312.4018
G1 X104.6105 Y311.7897
G1 X104.8 Y309.9867
G1 Y102.7633
G1 X104.6105 Y100.9602
G1 X104.4117 Y100.3484
G1 X104.0898 Y99.7908
G1 X103.6594 Y99.3128
G1 X103.1391 Y98.9348
G1 X102.5509 Y98.6729
G1 X101.9215 Y98.5391
G1 X101.2785
G1 X100.6491 Y98.6729
G1 X100.0611 Y98.9347
G1 X99.5407 Y99.3128
G1 X99.11 Y99.791
G1 X98.7883 Y100.3482
G1 X98.5896 Y100.96
G1 X98.4 Y102.7635
G1 Y309.9865
G1 X98.5896 Y311.7899
G1 X98.7884 Y312.402
G1 X99.1102 Y312.9593
G1 X99.3715 Y313.2496
G1 F300.0 X97.588 Y314.8555
G1 F800.0 X97.9256 Y315.2304
G1 X98.8546 Y315.9053
G1 X99.9035 Y316.3724
G1 X101.026 Y316.611
G1 X102.174
G1 X103.2965 Y316.3724
G1 X104.3455 Y315.9053
G1 X105.2745 Y315.2304
G1 X106.042 Y314.378
G1 X106.6162 Y313.3834
G1 X106.971 Y312.2915
G1 X107.2 Y310.1124
G1 Y102.6376
G1 X106.971 Y100.4584
G1 X106.6163 Y99.3668
G1 X106.0421 Y98.3723
G1 X105.2742 Y97.5194
G1 X104.3457 Y96.8448
G1 X103.2966 Y96.3778
G1 X102.1738 Y96.1391
G1 X101.0262
G1 X99.9034 Y96.3778
G1 X98.8545 Y96.8448
G1 X97.9259 Y97.5194
G1 X97.1577 Y98.3726
G1 X96.5838 Y99.3667
G1 X96.2291 Y100.4583
G1 X96.0 Y102.6378
G1 Y310.1122
G1 X96.2291 Y312.2917
G1 X96.5838 Y313.3835
G1 X97.1578 Y314.3778
G1 X97.588 Y314.8555
G1 F300.0 X95.8045 Y316.4614
G1 F800.0 X96.3109 Y317.0238
G1 X97.648 Y317.9952
G1 X99.1578 Y318.6675
G1 X100.7738 Y319.011
G1 X102.4262
G1 X104.0422 Y318.6675
G1 X105.5521 Y317.9952
G1 X106.8892 Y317.0238
G1 X107.9943 Y315.7964
G1 X108.8208 Y314.3649
G1 X109.3315 Y312.7933
G1 X109.6 Y310.2382
G1 Y102.5118
G1 X109.3315 Y99.9567
G1 X108.8208 Y98.3853
G1 X107.9945 Y96.9539
G1 X106.8889 Y95.726
G1 X105.5522 Y94.7549
G1 X104.0424 Y94.0827
G1 X102.4261 Y93.7391
G1 X100.7739
G1 X99.1576 Y94.0827
G1 X97.6479 Y94.7549
G1 X96.3111 Y95.726
G1 X95.2054 Y96.9541
G1 X94.3792 Y98.3851
G1 X93.8686 Y99.9565
G1 X93.6 Y102.512
G1 Y310.238
G1 X93.8686 Y312.7934
G1 X94.3792 Y314.365
G1 X95.2055 Y315.7962
G1 X95.8045 Y316.4614
G1 F300.0 X94.0209 Y318.0674
G1 F800.0 X94.6961 Y318.8172
G1 X96.4414 Y320.0851
G1 X98.412 Y320.9626
G1 X100.5215 Y321.411
G1 X102.6785
G1 X104.788 Y320.9626
G1 X106.7587 Y320.0851
G1 X108.5039 Y318.8172
G1 X109.9467 Y317.2149
G1 X111.0254 Y315.3464
G1 X111.692 Y313.295
G1 X112.0 Y310.364
G1 Y102.386
G1 X111.692 Y99.4549
G1 X111.0254 Y97.4037
G1 X109.9468 Y95.5355
G1 X108.5037 Y93.9327
G1 X106.7588 Y92.665
G1 X104.7881 Y91.7876
G1 X102.6783 Y91.3391
G1 X100.5217
G1 X98.4119 Y91.7876
G1 X96.4413 Y92.665
G1 X94.6964 Y93.9327
G1 X93.2531 Y95.5357
G1 X92.1746 Y97.4036
G1 X91.5081 Y99.4548
G1 X91.2 Y102.3862
G1 Y310.3638
G1 X91.5081 Y313.2951
G1 X92.1746 Y315.3466
G1 X93.2532 Y317.2147
G1 X94.0209 Y318.0674
G1 F300.0 X92.2374 Y319.6733
G1 F800.0 X93.0814 Y320.6106
G1 X95.2347 Y322.175
G1 X97.6663 Y323.2577
G1 X100.2693 Y323.811
G1 X102.9307
G1 X105.5337 Y323.2577
G1 X107.9653 Y322.175
G1 X110.1187 Y320.6106
G1 X111.8991 Y318.6333
G1 X113.2299 Y316.328
G1 X114.0525 Y313.7968
G1 X114.4 Y310.4897
G1 Y102.2603
G1 X114.0524 Y98.9532
G1 X113.23 Y96.4221
G1 X111.8992 Y94.1171
G1 X110.1185 Y92.1393
G1 X107.9654 Y90.5751
G1 X105.5339 Y89.4925
G1 X102.9306 Y88.9391
G1 X100.2694
G1 X97.6661 Y89.4925
G1 X95.2347 Y90.5751
G1 X93.0816 Y92.1393
G1 X91.3007 Y94.1172
G1 X89.97 Y96.422
G1 X89.1476 Y98.9531
G1 X88.8 Y102.2604
G1 Y310.4896
G1 X89.1476 Y313.7969
G1 X89.97 Y316.3281
G1 X91.3008 Y318.6331
G1 X92.2374 Y319.6733
G1 F300.0 X90.4539 Y321.2793
G1 F800.0 X91.4667 Y322.404
G1 X94.0281 Y324.2649
G1 X96.9205 Y325.5528
G1 X100.017 Y326.211
G1 X103.183
G1 X106.2795 Y325.5528
G1 X109.1719 Y324.2649
G1 X111.7334 Y322.404
G1 X113.8514 Y320.0517
G1 X115.4345 Y317.3095
G1 X116.4129 Y314.2985
G1 X116.8 Y310.6155
G1 Y102.1345
G1 X116.4129 Y98.4514
G1 X115.4346 Y95.4406
G1 X113.8515 Y92.6986
G1 X111.7332 Y90.3459
G1 X109.172 Y88.4852
G1 X106.2796 Y87.1974
G1 X103.1829 Y86.5391
G1 X100.0171
G1 X96.9204 Y87.1974
G1 X94.0281 Y88.4851
G1 X91.4668 Y90.3459
G1 X89.3484 Y92.6987
G1 X87.7654 Y95.4405
G1 X86.7872 Y98.4514
G1 X86.4 Y102.1346
G1 Y310.6154
G1 X86.7872 Y314.2986
G1 X87.7654 Y317.3096
G1 X89.3485 Y320.0516
G1 X90.4539 Y321.2793
G1 F300.0 X88.6704 Y322.8852
G1 F800.0 X89.852 Y324.1974
G1 X92.8215 Y326.3548
G1 X96.1747 Y327.8479
G1 X99.7648 Y328.611
G1 X103.4352
G1 X107.0253 Y327.8479
G1 X110.3785 Y326.3548
G1 X113.3481 Y324.1974
G1 X115.8038 Y321.4701
G1 X117.6391 Y318.291
G1 X118.7734 Y314.8003
G1 X119.2 Y310.7413
G1 Y102.0087
G1 X118.7734 Y97.9497
G1 X117.6391 Y94.459
G1 X115.8039 Y91.2802
G1 X113.348 Y88.5526
G1 X110.3786 Y86.3952
G1 X107.0253 Y84.9023
G1 X103.4351 Y84.1391
G1 X99.7649
G1 X96.1747 Y84.9023
G1 X92.8215 Y86.3952
G1 X89.8521 Y88.5526
G1 X87.3961 Y91.2803
G1 X85.5608 Y94.4589
G1 X84.4267 Y97.9496
G1 X84.0 Y102.0088
G1 Y310.7412
G1 X84.4267 Y314.8004
G1 X85.5608 Y318.2911
G1 X87.3961 Y321.47
G1 X88.6704 Y322.8852
G1 F300.0 X86.8868 Y324.4911
G1 F800.0 X88.2372 Y325.9908
G1 X91.6149 Y328.4447
G1 X95.429 Y330.143
G1 X99.5126 Y331.011
G1 X103.6874
G1 X107.771 Y330.143
G1 X111.5851 Y328.4447
G1 X114.9629 Y325.9908
G1 X117.7562 Y322.8886
G1 X119.8437 Y319.2726
G1 X121.1339 Y315.302
G1 X121.6 Y310.867
G1 Y101.883
G1 X121.1339 Y97.4479
G1 X119.8437 Y93.4774
G1 X117.7562 Y89.8618
G1 X114.9628 Y86.7592
G1 X111.5852 Y84.3053
G1 X107.7711 Y82.6072
G1 X103.6874 Y81.7391
G1 X99.5126
G1 X95.4289 Y82.6072
G1 X91.6149 Y84.3053
G1 X88.2373 Y86.7592
G1 X85.4437 Y89.8618
G1 X83.3562 Y93.4774
G1 X82.0662 Y97.4479
G1 X81.6 Y101.883
G1 Y310.867
G1 X82.0662 Y315.3021
G1 X83.3562 Y319.2726
G1 X85.4438 Y322.8885
G1 X86.8868 Y324.4911
G1 F300.0 X85.1033 Y326.0971
G1 F800.0 X86.6225 Y327.7842
G1 X90.4083 Y330.5346
G1 X94.6832 Y332.4381
G1 X99.2603 Y333.411
G1 X103.9397
G1 X108.5168 Y332.4381
G1 X112.7917 Y330.5346
G1 X116.5776 Y327.7842
G1 X119.7085 Y324.307
G1 X122.0483 Y320.2541
G1 X123.4944 Y315.8038
G1 X124.0 Y310.9928
G1 Y101.7572
G1 X123.4944 Y96.9462
G1 X122.0483 Y92.4959
G1 X119.7086 Y88.4433
G1 X116.5775 Y84.9658
G1 X112.7918 Y82.2154
G1 X108.5168 Y80.3121
G1 X103.9397 Y79.3391
G1 X99.2603
G1 X94.6832 Y80.3121
G1 X90.4083 Y82.2154
G1 X86.6226 Y84.9658
G1 X83.4914 Y88.4434
G1 X81.1516 Y92.4958
G1 X79.7057 Y96.9462
G1 X79.2 Y101.7572
G1 Y310.9928
G1 X79.7057 Y315.8038
G1 X81.1516 Y320.2541
G1 X83.4914 Y324.3069
G1 X85.1033 Y326.0971
G0 Z3.0
G0 X101.155 Y311.6436
G0 Z-3.4
G1 F300.0 Z-4.8
G1 F800.0 X101.2678 Y311.7256
G1 X101.3951 Y311.7822
G1 X101.5305 Y311.811
G1 X101.6695
G1 X101.8049 Y311.7822
G1 X101.9323 Y311.7255
G1 X102.045 Y311.6436
G1 X102.1372 Y311.5412
G1 X102.207 Y311.4203
G1 X102.25 Y311.288
G1 X102.4 Y309.8609
G1 Y102.8891
G1 X102.25 Y101.462
G1 X102.2071 Y101.33
G1 X102.1374 Y101.2092
G1 X102.0446 Y101.1062
G1 X101.9325 Y101.0247
G1 X101.8051 Y100.968
G1 X101.6692 Y100.9391
G1 X101.5308
G1 X101.3949 Y100.968
G1 X101.2677 Y101.0246
G1 X101.1554 Y101.1062
G1 X101.0624 Y101.2095
G1 X100.9929 Y101.3298
G1 X100.9501 Y101.4617
G1 X100.8 Y102.8893
G1 Y309.8607
G1 X100.9501 Y311.2882
G1 X100.993 Y311.4205
G1 X101.0625 Y311.5409
G1 X101.155 Y311.6436
G1 F300.0 X99.3715 Y313.2496
G1 F800.0 X99.5403 Y313.437
G1 X100.0612 Y313.8155
G1 X100.6493 Y314.0773
G1 X101.2783 Y314.211
G1 X101.9217
G1 X102.5507 Y314.0773
G1 X103.1389 Y313.8154
G1 X103.6597 Y313.437
G1 X104.0896 Y312.9596
G1 X104.4116 Y312.4018
G1 X104.6105 Y311.7897
G1 X104.8 Y309.9867
G1 Y102.7633
G1 X104.6105 Y100.9602
G1 X104.4117 Y100.3484
G1 X104.0898 Y99.7908
G1 X103.6594 Y99.3128
G1 X103.1391 Y98.9348
G1 X102.5509 Y98.6729
G1 X101.9215 Y98.5391
G1 X101.2785
G1 X100.6491 Y98.6729
G1 X100.0611 Y98.9347
G1 X99.5407 Y99.3128
G1 X99.11 Y99.791
G1 X98.7883 Y100.3482
G1 X98.5896 Y100.96
G1 X98.4 Y102.7635
G1 Y309.9865
G1 X98.5896 Y311.7899
G1 X98.7884 Y312.402
G1 X99.1102 Y312.9593
G1 X99.3715 Y313.2496
G1 F300.0 X97.588 Y314.8555
G1 F800.0 X97.9256 Y315.2304
G1 X98.8546 Y315.9053
G1 X99.9035 Y316.3724
G1 X101.026 Y316.611
G1 X102.174
G1 X103.2965 Y316.3724
G1 X104.3455 Y315.9053
G1 X105.2745 Y315.2304
G1 X106.042 Y314.378
G1 X106.6162 Y313.3834
G1 X106.971 Y312.2915
G1 X107.2 Y310.1124
G1 Y102.6376
G1 X106.971 Y100.4584
G1 X106.6163 Y99.3668
G1 X106.0421 Y98.3723
G1 X105.2742 Y97.5194
G1 X104.3457 Y96.8448
G1 X103.2966 Y96.3778
G1 X102.1738 Y96.1391
G1 X101.0262
G1 X99.9034 Y96.3778
G1 X98.8545 Y96.8448
G1 X97.9259 Y97.5194
G1 X97.1577 Y98.3726
G1 X96.5838 Y99.3667
G1 X96.2291 Y100.4583
G1 X96.0 Y102.6378
G1 Y310.1122
G1 X96.2291 Y312.2917
G1 X96.5838 Y313.3835
G1 X97.1578 Y314.3778
G1 X97.588 Y314.8555
G1 F300.0 X95.8045 Y316.4614
G1 F800.0 X96.3109 Y317.0238
G1 X97.648 Y317.9952
G1 X99.1578 Y318.6675
G1 X100.7738 Y319.011
G1 X102.4262
G1 X104.0422 Y318.6675
G1 X105.5521 Y317.9952
G1 X106.8892 Y317.0238
G1 X107.9943 Y315.7964
G1 X108.8208 Y314.3649
G1 X109.3315 Y312.7933
G1 X109.6 Y310.2382
G1 Y102.5118
G1 X109.3315 Y99.9567
G1 X108.8208 Y98.3853
G1 X107.9945 Y96.9539
G1 X106.8889 Y95.726
G1 X105.5522 Y94.7549
G1 X104.0424 Y94.0827
G1 X102.4261 Y93.7391
G1 X100.7739
G1 X99.1576 Y94.0827
G1 X97.6479 Y94.7549
G1 X96.3111 Y95.726
G1 X95.2054 Y96.9541
G1 X94.3792 Y98.3851
G1 X93.8686 Y99.9565
G1 X93.6 Y102.512
G1 Y310.238
G1 X93.8686 Y312.7934
G1 X94.3792 Y314.365
G1 X95.2055 Y315.7962
G1 X95.8045 Y316.4614
G1 F300.0 X94.0209 Y318.0674
G1 F800.0 X94.6961 Y318.8172
G1 X96.4414 Y320.0851
G1 X98.412 Y320.9626
G1 X100.5215 Y321.411
G1 X102.6785
G1 X104.788 Y320.9626
G1 X106.7587 Y320.0851
G1 X108.5039 Y318.8172
G1 X109.9467 Y317.2149
G1 X111.0254 Y315.3464
G1 X111.692 Y313.295
G1 X112.0 Y310.364
G1 Y102.386
G1 X111.692 Y99.4549
G1 X111.0254 Y97.4037
G1 X109.9468 Y95.5355
G1 X108.5037 Y93.9327
G1 X106.7588 Y92.665
G1 X104.7881 Y91.7876
G1 X102.6783 Y91.3391
G1 X100.5217
G1 X98.4119 Y91.7876
G1 X96.4413 Y92.665
G1 X94.6964 Y93.9327
G1 X93.2531 Y95.5357
G1 X92.1746 Y97.4036
G1 X91.5081 Y99.4548
G1 X91.2 Y102.3862
G1 Y310.3638
G1 X91.5081 Y313.2951
G1 X92.1746 Y315.3466
G1 X93.2532 Y317.2147
G1 X94.0209 Y318.0674
G1 F300.0 X92.2374 Y319.6733
G1 F800.0 X93.0814 Y320.6106
G1 X95.2347 Y322.175
G1 X97.6663 Y323.2577
G1 X100.2693 Y323.811
G1 X102.9307
G1 X105.5337 Y323.2577
G1 X107.9653 Y322.175
G1 X110.1187 Y320.6106
G1 X111.8991 Y318.6333
G1 X113.2299 Y316.328
G1 X114.0525 Y313.7968
G1 X114.4 Y310.4897
G1 Y102.2603
G1 X114.0524 Y98.9532
G1 X113.23 Y96.4221
G1 X111.8992 Y94.1171
G1 X110.1185 Y92.1393
G1 X107.9654 Y90.5751
G1 X105.5339 Y89.4925
G1 X102.9306 Y88.9391
G1 X100.2694
G1 X97.6661 Y89.4925
G1 X95.2347 Y90.5751
G1 X93.0816 Y92.1393
G1 X91.3007 Y94.1172
G1 X89.97 Y96.422
G1 X89.1476 Y98.9531
G1 X88.8 Y102.2604
G1 Y310.4896
G1 X89.1476 Y313.7969
G1 X89.97 Y316.3281
G1 X91.3008 Y318.6331
G1 X92.2374 Y319.6733
G1 F300.0 X90.4539 Y321.2793
G1 F800.0 X91.4667 Y322.404
G1 X94.0281 Y324.2649
G1 X96.9205 Y325.5528
G1 X100.017 Y326.211
G1 X103.183
G1 X106.2795 Y325.5528
G1 X109.1719 Y324.2649
G1 X111.7334 Y322.404
G1 X113.8514 Y320.0517
G1 X115.4345 Y317.3095
G1 X116.4129 Y314.2985
G1 X116.8 Y310.6155
G1 Y102.1345
G1 X116.4129 Y98.4514
G1 X115.4346 Y95.4406
G1 X113.8515 Y92.6986
G1 X111.7332 Y90.3459
G1 X109.172 Y88.4852
G1 X106.2796 Y87.1974
G1 X103.1829 Y86.5391
G1 X100.0171
G1 X96.9204 Y87.1974
G1 X94.0281 Y88.4851
G1 X91.4668 Y90.3459
G1 X89.3484 Y92.6987
G1 X87.7654 Y95.4405
G1 X86.7872 Y98.4514
G1 X86.4 Y102.1346
G1 Y310.6154
G1 X86.7872 Y314.2986
G1 X87.7654 Y317.3096
G1 X89.3485 Y320.0516
G1 X90.4539 Y321.2793
G1 F300.0 X88.6704 Y322.8852
G1 F800.0 X89.852 Y324.1974
G1 X92.8215 Y326.3548
G1 X96.1747 Y327.8479
G1 X99.7648 Y328.611
G1 X103.4352
G1 X107.0253 Y327.8479
G1 X110.3785 Y326.3548
G1 X113.3481 Y324.1974
G1 X115.8038 Y321.4701
G1 X117.6391 Y318.291
G1 X118.7734 Y314.8003
G1 X119.2 Y310.7413
G1 Y102.0087
G1 X118.7734 Y97.9497
G1 X117.6391 Y94.459
G1 X115.8039 Y91.2802
G1 X113.348 Y88.5526
G1 X110.3786 Y86.3952
G1 X107.0253 Y84.9023
G1 X103.4351 Y84.1391
G1 X99.7649
G1 X96.1747 Y84.9023
G1 X92.8215 Y86.3952
G1 X89.8521 Y88.5526
G1 X87.3961 Y91.2803
G1 X85.5608 Y94.4589
G1 X84.4267 Y97.9496
G1 X84.0 Y102.0088
G1 Y310.7412
G1 X84.4267 Y314.8004
G1 X85.5608 Y318.2911
G1 X87.3961 Y321.47
G1 X88.6704 Y322.8852
G1 F300.0 X86.8868 Y324.4911
G1 F800.0 X88.2372 Y325.9908
G1 X91.6149 Y328.4447
G1 X95.429 Y330.143
G1 X99.5126 Y331.011
G1 X103.6874
G1 X107.771 Y330.143
G1 X111.5851 Y328.4447
G1 X114.9629 Y325.9908
G1 X117.7562 Y322.8886
G1 X119.8437 Y319.2726
G1 X121.1339 Y315.302
G1 X121.6 Y310.867
G1 Y101.883
G1 X121.1339 Y97.4479
G1 X119.8437 Y93.4774
G1 X117.7562 Y89.8618
G1 X114.9628 Y86.7592
G1 X111.5852 Y84.3053
G1 X107.7711 Y82.6072
G1 X103.6874 Y81.7391
G1 X99.5126
G1 X95.4289 Y82.6072
G1 X91.6149 Y84.3053
G1 X88.2373 Y86.7592
G1 X85.4437 Y89.8618
G1 X83.3562 Y93.4774
G1 X82.0662 Y97.4479
G1 X81.6 Y101.883
G1 Y310.867
G1 X82.0662 Y315.3021
G1 X83.3562 Y319.2726
G1 X85.4438 Y322.8885
G1 X86.8868 Y324.4911
G1 F300.0 X85.1033 Y326.0971
G1 F800.0 X86.6225 Y327.7842
G1 X90.4083 Y330.5346
G1 X94.6832 Y332.4381
G1 X99.2603 Y333.411
G1 X103.9397
G1 X108.5168 Y332.4381
G1 X112.7917 Y330.5346
G1 X116.5776 Y327.7842
G1 X119.7085 Y324.307
G1 X122.0483 Y320.2541
G1 X123.4944 Y315.8038
G1 X124.0 Y310.9928
G1 Y101.7572
G1 X123.4944 Y96.9462
G1 X122.0483 Y92.4959
G1 X119.7086 Y88.4433
G1 X116.5775 Y84.9658
G1 X112.7918 Y82.2154
G1 X108.5168 Y80.3121
G1 X103.9397 Y79.3391
G1 X99.2603
G1 X94.6832 Y80.3121
G1 X90.4083 Y82.2154
G1 X86.6226 Y84.9658
G1 X83.4914 Y88.4434
G1 X81.1516 Y92.4958
G1 X79.7057 Y96.9462
G1 X79.2 Y101.7572
G1 Y310.9928
G1 X79.7057 Y315.8038
G1 X81.1516 Y320.2541
G1 X83.4914 Y324.3069
G1 X85.1033 Y326.0971
G0 Z3.0
G0 X101.155 Y311.6436
G0 Z-3.8
G1 F300.0 Z-5.2
G1 F800.0 X101.2678 Y311.7256
G1 X101.3951 Y311.7822
G1 X101.5305 Y311.811
G1 X101.6695
G1 X101.8049 Y311.7822
G1 X101.9323 Y311.7255
G1 X102.045 Y311.6436
G1 X102.1372 Y311.5412
G1 X102.207 Y311.4203
G1 X102.25 Y311.288
G1 X102.4 Y309.8609
G1 Y102.8891
G1 X102.25 Y101.462
G1 X102.2071 Y101.33
G1 X102.1374 Y101.2092
G1 X102.0446 Y101.1062
G1 X101.9325 Y101.0247
G1 X101.8051 Y100.968
G1 X101.6692 Y100.9391
G1 X101.5308
G1 X101.3949 Y100.968
G1 X101.2677 Y101.0246
G1 X101.1554 Y101.1062
G1 X101.0624 Y101.2095
G1 X100.9929 Y101.3298
G1 X100.9501 Y101.4617
G1 X100.8 Y102.8893
G1 Y309.8607
G1 X100.9501 Y311.2882
G1 X100.993 Y311.4205
G1 X101.0625 Y311.5409
G1 X101.155 Y311.6436
G1 F300.0 X99.3715 Y313.2496
G1 F800.0 X99.5403 Y313.437
G1 X100.0612 Y313.8155
G1 X100.6493 Y314.0773
G1 X101.2783 Y314.211
G1 X101.9217
G1 X102.5507 Y314.0773
G1 X103.1389 Y313.8154
G1 X103.6597 Y313.437
G1 X104.0896 Y312.9596
G1 X104.4116 Y312.4018
G1 X104.6105 Y311.7897
G1 X104.8 Y309.9867
G1 Y102.7633
G1 X104.6105 Y100.9602
G1 X104.4117 Y100.3484
G1 X104.0898 Y99.7908
G1 X103.6594 Y99.3128
G1 X103.1391 Y98.9348
G1 X102.5509 Y98.6729
G1 X101.9215 Y98.5391
G1 X101.2785
G1 X100.6491 Y98.6729
G1 X100.0611 Y98.9347
G1 X99.5407 Y99.3128
G1 X99.11 Y99.791
G1 X98.7883 Y100.3482
G1 X98.5896 Y100.96
G1 X98.4 Y102.7635
G1 Y309.9865
G1 X98.5896 Y311.7899
G1 X98.7884 Y312.402
G1 X99.1102 Y312.9593
G1 X99.3715 Y313.2496
G1 F300.0 X97.588 Y314.8555
G1 F800.0 X97.9256 Y315.2304
G1 X98.8546 Y315.9053
G1 X99.9035 Y316.3724
G1 X101.026 Y316.611
G1 X102.174
G1 X103.2965 Y316.3724
G1 X104.3455 Y315.9053
G1 X105.2745 Y315.2304
G1 X106.042 Y314.378
G1 X106.6162 Y313.3834
G1 X106.971 Y312.2915
G1 X107.2 Y310.1124
G1 Y102.6376
G1 X106.971 Y100.4584
G1 X106.6163 Y99.3668
G1 X106.0421 Y98.3723
G1 X105.2742 Y97.5194
G1 X104.3457 Y96.8448
G1 X103.2966 Y96.3778
G1 X102.1738 Y96.1391
G1 X101.0262
G1 X99.9034 Y96.3778
G1 X98.8545 Y96.8448
G1 X97.9259 Y97.5194
G1 X97.1577 Y98.3726
G1 X96.5838 Y99.3667
G1 X96.2291 Y100.4583
G1 X96.0 Y102.6378
G1 Y310.1122
G1 X96.2291 Y312.2917
G1 X96.5838 Y313.3835
G1 X97.1578 Y314.3778
G1 X97.588 Y314.8555
G1 F300.0 X95.8045 Y316.4614
G1 F800.0 X96.3109 Y317.0238
G1 X97.648 Y317.9952
G1 X99.1578 Y318.6675
G1 X100.7738 Y319.011
G1 X102.4262
G1 X104.0422 Y318.6675
G1 X105.5521 Y317.9952
G1 X106.8892 Y317.0238
G1 X107.9943 Y315.7964
G1 X108.8208 Y314.3649
G1 X109.3315 Y312.7933
G1 X109.6 Y310.2382
G1 Y102.5118
G1 X109.3315 Y99.9567
G1 X108.8208 Y98.3853
G1 X107.9945 Y96.9539
G1 X106.8889 Y95.726
G1 X105.5522 Y94.7549
G1 X104.0424 Y94.0827
G1 X102.4261 Y93.7391
G1 X100.7739
G1 X99.1576 Y94.0827
G1 X97.6479 Y94.7549
G1 X96.3111 Y95.726
G1 X95.2054 Y96.9541
G1 X94.3792 Y98.3851
G1 X93.8686 Y99.9565
G1 X93.6 Y102.512
G1 Y310.238
G1 X93.8686 Y312.7934
G1 X94.3792 Y314.365
G1 X95.2055 Y315.7962
G1 X95.8045 Y316.4614
G1 F300.0 X94.0209 Y318.0674
G1 F800.0 X94.6961 Y318.8172
G1 X96.4414 Y320.0851
G1 X98.412 Y320.9626
G1 X100.5215 Y321.411
G1 X102.6785
G1 X104.788 Y320.9626
G1 X106.7587 Y320.0851
G1 X108.5039 Y318.8172
G1 X109.9467 Y317.2149
G1 X111.0254 Y315.3464
G1 X111.692 Y313.295
G1 X112.0 Y310.364
G1 Y102.386
G1 X111.692 Y99.4549
G1 X111.0254 Y97.4037
G1 X109.9468 Y95.5355
G1 X108.5037 Y93.9327
G1 X106.7588 Y92.665
G1 X104.7881 Y91.7876
G1 X102.6783 Y91.3391
G1 X100.5217
G1 X98.4119 Y91.7876
G1 X96.4413 Y92.665
G1 X94.6964 Y93.9327
G1 X93.2531 Y95.5357
G1 X92.1746 Y97.4036
G1 X91.5081 Y99.4548
G1 X91.2 Y102.3862
G1 Y310.3638
G1 X91.5081 Y313.2951
G1 X92.1746 Y315.3466
G1 X93.2532 Y317.2147
G1 X94.0209 Y318.0674
G1 F300.0 X92.2374 Y319.6733
G1 F800.0 X93.0814 Y320.6106
G1 X95.2347 Y322.175
G1 X97.6663 Y323.2577
G1 X100.2693 Y323.811
G1 X102.9307
G1 X105.5337 Y323.2577
G1 X107.9653 Y322.175
G1 X110.1187 Y320.6106
G1 X111.8991 Y318.6333
G1 X113.2299 Y316.328
G1 X114.0525 Y313.7968
G1 X114.4 Y310.4897
G1 Y102.2603
G1 X114.0524 Y98.9532
G1 X113.23 Y96.4221
G1 X111.8992 Y94.1171
G1 X110.1185 Y92.1393
G1 X107.9654 Y90.5751
G1 X105.5339 Y89.4925
G1 X102.9306 Y88.9391
G1 X100.2694
G1 X97.6661 Y89.4925
G1 X95.2347 Y90.5751
G1 X93.0816 Y92.1393
G1 X91.3007 Y94.1172
G1 X89.97 Y96.422
G1 X89.1476 Y98.9531
G1 X88.8 Y102.2604
G1 Y310.4896
G1 X89.1476 Y313.7969
G1 X89.97 Y316.3281
G1 X91.3008 Y318.6331
G1 X92.2374 Y319.6733
G1 F300.0 X90.4539 Y321.2793
G1 F800.0 X91.4667 Y322.404
G1 X94.0281 Y324.2649
G1 X96.9205 Y325.5528
G1 X100.017 Y326.211
G1 X103.183
G1 X106.2795 Y325.5528
G1 X109.1719 Y324.2649
G1 X111.7334 Y322.404
G1 X113.8514 Y320.0517
G1 X115.4345 Y317.3095
G1 X116.4129 Y314.2985
G1 X116.8 Y310.6155
G1 Y102.1345
G1 X116.4129 Y98.4514
G1 X115.4346 Y95.4406
G1 X113.8515 Y92.6986
G1 X111.7332 Y90.3459
G1 X109.172 Y88.4852
G1 X106.2796 Y87.1974
G1 X103.1829 Y86.5391
G1 X100.0171
G1 X96.9204 Y87.1974
G1 X94.0281 Y88.4851
G1 X91.4668 Y90.3459
G1 X89.3484 Y92.6987
G1 X87.7654 Y95.4405
G1 X86.7872 Y98.4514
G1 X86.4 Y102.1346
G1 Y310.6154
G1 X86.7872 Y314.2986
G1 X87.7654 Y317.3096
G1 X89.3485 Y320.0516
G1 X90.4539 Y321.2793
G1 F300.0 X88.6704 Y322.8852
G1 F800.0 X89.852 Y324.1974
G1 X92.8215 Y326.3548
G1 X96.1747 Y327.8479
G1 X99.7648 Y328.611
G1 X103.4352
G1 X107.0253 Y327.8479
G1 X110.3785 Y326.3548
G1 X113.3481 Y324.1974
G1 X115.8038 Y321.4701
G1 X117.6391 Y318.291
G1 X118.7734 Y314.8003
G1 X119.2 Y310.7413
G1 Y102.0087
G1 X118.7734 Y97.9497
G1 X117.6391 Y94.459
G1 X115.8039 Y91.2802
G1 X113.348 Y88.5526
G1 X110.3786 Y86.3952
G1 X107.0253 Y84.9023
G1 X103.4351 Y84.1391
G1 X99.7649
G1 X96.1747 Y84.9023
G1 X92.8215 Y86.3952
G1 X89.8521 Y88.5526
G1 X87.3961 Y91.2803
G1 X85.5608 Y94.4589
G1 X84.4267 Y97.9496
G1 X84.0 Y102.0088
G1 Y310.7412
G1 X84.4267 Y314.8004
G1 X85.5608 Y318.2911
G1 X87.3961 Y321.47
G1 X88.6704 Y322.8852
G1 F300.0 X86.8868 Y324.4911
G1 F800.0 X88.2372 Y325.9908
G1 X91.6149 Y328.4447
G1 X95.429 Y330.143
G1 X99.5126 Y331.011
G1 X103.6874
G1 X107.771 Y330.143
G1 X111.5851 Y328.4447
G1 X114.9629 Y325.9908
G1 X117.7562 Y322.8886
G1 X119.8437 Y319.2726
G1 X121.1339 Y315.302
G1 X121.6 Y310.867
G1 Y101.883
G1 X121.1339 Y97.4479
G1 X119.8437 Y93.4774
G1 X117.7562 Y89.8618
G1 X114.9628 Y86.7592
G1 X111.5852 Y84.3053
G1 X107.7711 Y82.6072
G1 X103.6874 Y81.7391
G1 X99.5126
G1 X95.4289 Y82.6072
G1 X91.6149 Y84.3053
G1 X88.2373 Y86.7592
G1 X85.4437 Y89.8618
G1 X83.3562 Y93.4774
G1 X82.0662 Y97.4479
G1 X81.6 Y101.883
G1 Y310.867
G1 X82.0662 Y315.3021
G1 X83.3562 Y319.2726
G1 X85.4438 Y322.8885
G1 X86.8868 Y324.4911
G1 F300.0 X85.1033 Y326.0971
G1 F800.0 X86.6225 Y327.7842
G1 X90.4083 Y330.5346
G1 X94.6832 Y332.4381
G1 X99.2603 Y333.411
G1 X103.9397
G1 X108.5168 Y332.4381
G1 X112.7917 Y330.5346
G1 X116.5776 Y327.7842
G1 X119.7085 Y324.307
G1 X122.0483 Y320.2541
G1 X123.4944 Y315.8038
G1 X124.0 Y310.9928
G1 Y101.7572
G1 X123.4944 Y96.9462
G1 X122.0483 Y92.4959
G1 X119.7086 Y88.4433
G1 X116.5775 Y84.9658
G1 X112.7918 Y82.2154
G1 X108.5168 Y80.3121
G1 X103.9397 Y79.3391
G1 X99.2603
G1 X94.6832 Y80.3121
G1 X90.4083 Y82.2154
G1 X86.6226 Y84.9658
G1 X83.4914 Y88.4434
G1 X81.1516 Y92.4958
G1 X79.7057 Y96.9462
G1 X79.2 Y101.7572
G1 Y310.9928
G1 X79.7057 Y315.8038
G1 X81.1516 Y320.2541
G1 X83.4914 Y324.3069
G1 X85.1033 Y326.0971
G0 Z3.0
G0 X101.155 Y311.6436
G0 Z-4.2
G1 F300.0 Z-5.6
G1 F800.0 X101.2678 Y311.7256
G1 X101.3951 Y311.7822
G1 X101.5305 Y311.811
G1 X101.6695
G1 X101.8049 Y311.7822
G1 X101.9323 Y311.7255
G1 X102.045 Y311.6436
G1 X102.1372 Y311.5412
G1 X102.207 Y311.4203
G1 X102.25 Y311.288
G1 X102.4 Y309.8609
G1 Y102.8891
G1 X102.25 Y101.462
G1 X102.2071 Y101.33
G1 X102.1374 Y101.2092
G1 X102.0446 Y101.1062
G1 X101.9325 Y101.0247
G1 X101.8051 Y100.968
G1 X101.6692 Y100.9391
G1 X101.5308
G1 X101.3949 Y100.968
G1 X101.2677 Y101.0246
G1 X101.1554 Y101.1062
G1 X101.0624 Y101.2095
G1 X100.9929 Y101.3298
G1 X100.9501 Y101.4617
G1 X100.8 Y102.8893
G1 Y309.8607
G1 X100.9501 Y311.2882
G1 X100.993 Y311.4205
G1 X101.0625 Y311.5409
G1 X101.155 Y311.6436
G1 F300.0 X99.3715 Y313.2496
G1 F800.0 X99.5403 Y313.437
G1 X100.0612 Y313.8155
G1 X100.6493 Y314.0773
G1 X101.2783 Y314.211
G1 X101.9217
G1 X102.5507 Y314.0773
G1 X103.1389 Y313.8154
G1 X103.6597 Y313.437
G1 X104.0896 Y312.9596
G1 X104.4116 Y312.4018
G1 X104.6105 Y311.7897
G1 X104.8 Y309.9867
G1 Y102.7633
G1 X104.6105 Y100.9602
G1 X104.4117 Y100.3484
G1 X104.0898 Y99.7908
G1 X103.6594 Y99.3128
G1 X103.1391 Y98.9348
G1 X102.5509 Y98.6729
G1 X101.9215 Y98.5391
G1 X101.2785
G1 X100.6491 Y98.6729
G1 X100.0611 Y98.9347
G1 X99.5407 Y99.3128
G1 X99.11 Y99.791
G1 X98.7883 Y100.3482
G1 X98.5896 Y100.96
G1 X98.4 Y102.7635
G1 Y309.9865
G1 X98.5896 Y311.7899
G1 X98.7884 Y312.402
G1 X99.1102 Y312.9593
G1 X99.3715 Y313.2496
G1 F300.0 X97.588 Y314.8555
G1 F800.0 X97.9256 Y315.2304
G1 X98.8546 Y315.9053
G1 X99.9035 Y316.3724
G1 X101.026 Y316.611
G1 X102.174
G1 X103.2965 Y316.3724
G1 X104.3455 Y315.9053
G1 X105.2745 Y315.2304
G1 X106.042 Y314.378
G1 X106.6162 Y313.3834
G1 X106.971 Y312.2915
G1 X107.2 Y310.1124
G1 Y102.6376
G1 X106.971 Y100.4584
G1 X106.6163 Y99.3668
G1 X106.0421 Y98.3723
G1 X105.2742 Y97.5194
G1 X104.3457 Y96.8448
G1 X103.2966 Y96.3778
G1 X102.1738 Y96.1391
G1 X101.0262
G1 X99.9034 Y96.3778
G1 X98.8545 Y96.8448
G1 X97.9259 Y97.5194
G1 X97.1577 Y98.3726
G1 X96.5838 Y99.3667
G1 X96.2291 Y100.4583
G1 X96.0 Y102.6378
G1 Y310.1122
G1 X96.2291 Y312.2917
G1 X96.5838 Y313.3835
G1 X97.1578 Y314.3778
G1 X97.588 Y314.8555
G1 F300.0 X95.8045 Y316.4614
G1 F800.0 X96.3109 Y317.0238
G1 X97.648 Y317.9952
G1 X99.1578 Y318.6675
G1 X100.7738 Y319.011
G1 X102.4262
G1 X104.0422 Y318.6675
G1 X105.5521 Y317.9952
G1 X106.8892 Y317.0238
G1 X107.9943 Y315.7964
G1 X108.8208 Y314.3649
G1 X109.3315 Y312.7933
G1 X109.6 Y310.2382
G1 Y102.5118
G1 X109.3315 Y99.9567
G1 X108.8208 Y98.3853
G1 X107.9945 Y96.9539
G1 X106.8889 Y95.726
G1 X105.5522 Y94.7549
G1 X104.0424 Y94.0827
G1 X102.4261 Y93.7391
G1 X100.7739
G1 X99.1576 Y94.0827
G1 X97.6479 Y94.7549
G1 X96.3111 Y95.726
G1 X95.2054 Y96.9541
G1 X94.3792 Y98.3851
G1 X93.8686 Y99.9565
G1 X93.6 Y102.512
G1 Y310.238
G1 X93.8686 Y312.7934
G1 X94.3792 Y314.365
G1 X95.2055 Y315.7962
G1 X95.8045 Y316.4614
G1 F300.0 X94.0209 Y318.0674
G1 F800.0 X94.6961 Y318.8172
G1 X96.4414 Y320.0851
G1 X98.412 Y320.9626
G1 X100.5215 Y321.411
G1 X102.6785
G1 X104.788 Y320.9626
G1 X106.7587 Y320.0851
G1 X108.5039 Y318.8172
G1 X109.9467 Y317.2149
G1 X111.0254 Y315.3464
G1 X111.692 Y313.295
G1 X112.0 Y310.364
G1 Y102.386
G1 X111.692 Y99.4549
G1 X111.0254 Y97.4037
G1 X109.9468 Y95.5355
G1 X108.5037 Y93.9327
G1 X106.7588 Y92.665
G1 X104.7881 Y91.7876
G1 X102.6783 Y91.3391
G1 X100.5217
G1 X98.4119 Y91.7876
G1 X96.4413 Y92.665
G1 X94.6964 Y93.9327
G1 X93.2531 Y95.5357
G1 X92.1746 Y97.4036
G1 X91.5081 Y99.4548
G1 X91.2 Y102.3862
G1 Y310.3638
G1 X91.5081 Y313.2951
G1 X92.1746 Y315.3466
G1 X93.2532 Y317.2147
G1 X94.0209 Y318.0674
G1 F300.0 X92.2374 Y319.6733
G1 F800.0 X93.0814 Y320.6106
G1 X95.2347 Y322.175
G1 X97.6663 Y323.2577
G1 X100.2693 Y323.811
G1 X102.9307
G1 X105.5337 Y323.2577
G1 X107.9653 Y322.175
G1 X110.1187 Y320.6106
G1 X111.8991 Y318.6333
G1 X113.2299 Y316.328
G1 X114.0525 Y313.7968
G1 X114.4 Y310.4897
G1 Y102.2603
G1 X114.0524 Y98.9532
G1 X113.23 Y96.4221
G1 X111.8992 Y94.1171
G1 X110.1185 Y92.1393
G1 X107.9654 Y90.5751
G1 X105.5339 Y89.4925
G1 X102.9306 Y88.9391
G1 X100.2694
G1 X97.6661 Y89.4925
G1 X95.2347 Y90.5751
G1 X93.0816 Y92.1393
G1 X91.3007 Y94.1172
G1 X89.97 Y96.422
G1 X89.1476 Y98.9531
G1 X88.8 Y102.2604
G1 Y310.4896
G1 X89.1476 Y313.7969
G1 X89.97 Y316.3281
G1 X91.3008 Y318.6331
G1 X92.2374 Y319.6733
G1 F300.0 X90.4539 Y321.2793
G1 F800.0 X91.4667 Y322.404
G1 X94.0281 Y324.2649
G1 X96.9205 Y325.5528
G1 X100.017 Y326.211
G1 X103.183
G1 X106.2795 Y325.5528
G1 X109.1719 Y324.2649
G1 X111.7334 Y322.404
G1 X113.8514 Y320.0517
G1 X115.4345 Y317.3095
G1 X116.4129 Y314.2985
G1 X116.8 Y310.6155
G1 Y102.1345
G1 X116.4129 Y98.4514
G1 X115.4346 Y95.4406
G1 X113.8515 Y92.6986
G1 X111.7332 Y90.3459
G1 X109.172 Y88.4852
G1 X106.2796 Y87.1974
G1 X103.1829 Y86.5391
G1 X100.0171
G1 X96.9204 Y87.1974
G1 X94.0281 Y88.4851
G1 X91.4668 Y90.3459
G1 X89.3484 Y92.6987
G1 X87.7654 Y95.4405
G1 X86.7872 Y98.4514
G1 X86.4 Y102.1346
G1 Y310.6154
G1 X86.7872 Y314.2986
G1 X87.7654 Y317.3096
G1 X89.3485 Y320.0516
G1 X90.4539 Y321.2793
G1 F300.0 X88.6704 Y322.8852
G1 F800.0 X89.852 Y324.1974
G1 X92.8215 Y326.3548
G1 X96.1747 Y327.8479
G1 X99.7648 Y328.611
G1 X103.4352
G1 X107.0253 Y327.8479
G1 X110.3785 Y326.3548
G1 X113.3481 Y324.1974
G1 X115.8038 Y321.4701
G1 X117.6391 Y318.291
G1 X118.7734 Y314.8003
G1 X119.2 Y310.7413
G1 Y102.0087
G1 X118.7734 Y97.9497
G1 X117.6391 Y94.459
G1 X115.8039 Y91.2802
G1 X113.348 Y88.5526
G1 X110.3786 Y86.3952
G1 X107.0253 Y84.9023
G1 X103.4351 Y84.1391
G1 X99.7649
G1 X96.1747 Y84.9023
G1 X92.8215 Y86.3952
G1 X89.8521 Y88.5526
G1 X87.3961 Y91.2803
G1 X85.5608 Y94.4589
G1 X84.4267 Y97.9496
G1 X84.0 Y102.0088
G1 Y310.7412
G1 X84.4267 Y314.8004
G1 X85.5608 Y318.2911
G1 X87.3961 Y321.47
G1 X88.6704 Y322.8852
G1 F300.0 X86.8868 Y324.4911
G1 F800.0 X88.2372 Y325.9908
G1 X91.6149 Y328.4447
G1 X95.429 Y330.143
G1 X99.5126 Y331.011
G1 X103.6874
G1 X107.771 Y330.143
G1 X111.5851 Y328.4447
G1 X114.9629 Y325.9908
G1 X117.7562 Y322.8886
G1 X119.8437 Y319.2726
G1 X121.1339 Y315.302
G1 X121.6 Y310.867
G1 Y101.883
G1 X121.1339 Y97.4479
G1 X119.8437 Y93.4774
G1 X117.7562 Y89.8618
G1 X114.9628 Y86.7592
G1 X111.5852 Y84.3053
G1 X107.7711 Y82.6072
G1 X103.6874 Y81.7391
G1 X99.5126
G1 X95.4289 Y82.6072
G1 X91.6149 Y84.3053
G1 X88.2373 Y86.7592
G1 X85.4437 Y89.8618
G1 X83.3562 Y93.4774
G1 X82.0662 Y97.4479
G1 X81.6 Y101.883
G1 Y310.867
G1 X82.0662 Y315.3021
G1 X83.3562 Y319.2726
G1 X85.4438 Y322.8885
G1 X86.8868 Y324.4911
G1 F300.0 X85.1033 Y326.0971
G1 F800.0 X86.6225 Y327.7842
G1 X90.4083 Y330.5346
G1 X94.6832 Y332.4381
G1 X99.2603 Y333.411
G1 X103.9397
G1 X108.5168 Y332.4381
G1 X112.7917 Y330.5346
G1 X116.5776 Y327.7842
